; generated by PrusaSlicer 2.1.0+win64 on 2020-06-18 at 17:52:34 UTC

; 

; external perimeters extrusion width = 0.45mm
; perimeters extrusion width = 0.45mm
; infill extrusion width = 0.45mm
; solid infill extrusion width = 0.45mm
; top infill extrusion width = 0.40mm
; support material extrusion width = 0.30mm
; first layer extrusion width = 0.42mm

M73 P0 R139
M73 Q0 S139
M201 X1000 Y1000 Z1000 E5000 ; sets maximum accelerations, mm/sec^2
M203 X200 Y200 Z12 E120 ; sets maximum feedrates, mm/sec
M204 P1250 R1250 T1250 ; sets acceleration (P, T) and retract acceleration (R), mm/sec^2
M205 X8.00 Y8.00 Z0.40 E1.50 ; sets the jerk limits, mm/sec
M205 S0 T0 ; sets the minimum extruding and travel feed rate, mm/sec
M107
M862.3 P "MK3SMMU2S" ; printer model check
M862.1 P0.4 ; nozzle diameter check
M115 U3.8.1 ; tell printer latest fw version
G90 ; use absolute coordinates
M83 ; extruder relative mode
M104 S215 ; set extruder temp
M140 S60 ; set bed temp
Tx
M190 S60 ; wait for bed temp
M109 S215 ; wait for extruder temp
G28 W ; home all without mesh bed level
G80 ; mesh bed leveling

G21 ; set units to millimeters

;go outside print area
G1 Y-3.0 F1000.0
G1 Z0.4 F1000.0
; select extruder
Tc
; purge line
G1 X55.0 F2000.0
G1 Z0.3 F1000.0
G92 E0.0
G1 X240.0 E25.0 F2200.0
M73 Q0 S139
M73 P0 R138
G1 Y-2.0 F1000.0
G1 X55.0 E25 F1400.0
G1 Z0.20 F1000.0
G1 X5.0 E4.0 F1000.0

M221 S100
G92 E0.0
G21 ; set units to millimeters
G90 ; use absolute coordinates
M83 ; use relative distances for extrusion
M900 K30 ; Filament gcode
;BEFORE_LAYER_CHANGE
G92 E0.0
;0.2


G1 E-0.80000 F2100.00000
G1 Z0.600 F10800.000
;AFTER_LAYER_CHANGE
;0.2
G1 X96.781 Y62.531
G1 Z0.200
G1 E0.80000 F2100.00000
M204 S500
G1 F1200
G1 X97.336 Y62.445 E0.01760
G1 X108.185 Y62.444 E0.34017
G1 X149.953 Y67.262 E1.31830
G1 X153.203 Y67.927 E0.10399
G1 X156.899 Y69.060 E0.12120
G1 X160.052 Y70.375 E0.10711
G1 X160.506 Y70.686 E0.01726
G1 X160.867 Y71.097 E0.01714
G1 X161.113 Y71.581 E0.01703
G1 X161.232 Y72.107 E0.01692
G1 X164.364 Y106.335 E1.07768
G1 X164.365 Y142.466 E1.13285
G1 X164.290 Y142.982 E0.01635
G1 X164.097 Y143.462 E0.01623
G1 X163.793 Y143.886 E0.01635
G1 X163.402 Y144.225 E0.01623
G1 X162.827 Y144.501 E0.01998
G1 X162.197 Y144.599 E0.01998
G1 X126.053 Y144.596 E1.13329
G1 X102.895 Y140.775 E0.73592
G1 X102.247 Y140.543 E0.02157
G1 X101.119 Y139.802 E0.04231
G1 X99.834 Y138.779 E0.05151
G1 X99.076 Y138.071 E0.03251
G1 X97.811 Y136.671 E0.05917
G1 X93.186 Y131.024 E0.22886
G1 X90.001 Y125.495 E0.20005
G1 X87.452 Y118.730 E0.22668
G1 X86.945 Y117.213 E0.05015
G1 X86.635 Y115.916 E0.04181
G1 X83.399 Y97.728 E0.57924
G1 X83.375 Y82.239 E0.48563
G1 X84.519 Y76.689 E0.17769
G1 X84.674 Y76.229 E0.01521
G1 X84.928 Y75.815 E0.01521
G1 X89.134 Y70.419 E0.21453
G1 X92.183 Y66.801 E0.14835
G1 X95.852 Y63.078 E0.16390
G1 X96.264 Y62.758 E0.01635
G1 X96.726 Y62.555 E0.01583
M204 S1000
G1 F8640
G1 X97.336 Y62.445 E-0.14304
G1 X100.008 Y62.445 E-0.61696
G1 E-0.04000 F2100.00000
G1 Z0.800 F10800.000
G1 X91.248 Y82.801
G1 Z0.200
G1 E0.80000 F2100.00000
M204 S500
G1 F1200
G1 X91.248 Y81.903 E0.01919
G1 X90.759 Y81.903 E0.01046
G1 X90.759 Y85.813 E0.08359
G1 X90.564 Y87.118 E0.02821
G1 X90.412 Y89.314 E0.04705
G1 X90.431 Y91.451 E0.04567
G1 X90.515 Y92.286 E0.01795
G1 X90.654 Y93.039 E0.01637
G1 X90.759 Y93.392 E0.00787
G1 X90.759 Y96.217 E0.06039
G1 X90.269 Y96.217 E0.01046
G1 X90.269 Y81.903 E0.30598
G1 X89.780 Y81.903 E0.01046
G1 X89.780 Y96.347 E0.30877
M204 S1000
G1 F8640
G1 X89.780 Y93.056 E-0.76000
G1 E-0.04000 F2100.00000
G1 Z0.800 F10800.000
G1 X91.248 Y96.347
G1 Z0.200
G1 E0.80000 F2100.00000
M204 S500
G1 F1200
G1 X91.248 Y95.303 E0.02234
M204 S1000
G1 F8640
G1 X91.248 Y96.347 E-0.24129
G1 E-0.55871 F2100.00000
G1 Z0.800 F10800.000
G1 X90.840 Y93.092
G1 Z0.200
G1 E0.80000 F2100.00000
M204 S500
G1 F1200
G1 X90.840 Y86.309 E0.21266
M204 S1000
G1 F8640
G1 X90.840 Y89.601 E-0.76000
G1 E-0.04000 F2100.00000
G1 Z0.800 F10800.000
G1 X91.248 Y84.320
G1 Z0.200
G1 E0.80000 F2100.00000
M204 S500
G1 F1200
G1 X91.248 Y83.562 E0.01621
M204 S1000
G1 F8640
G1 X91.248 Y84.320 E-0.17505
G1 E-0.62495 F2100.00000
G1 Z0.800 F10800.000
G1 X85.561 Y82.356
G1 Z0.200
G1 E0.80000 F2100.00000
M204 S500
G1 F1200
G1 X85.561 Y97.384 E0.47119
G1 X86.315 Y97.384 E0.02365
G1 X86.315 Y82.526 E0.46587
G1 X86.656 Y82.526 E0.01071
G1 X86.656 Y77.158 E0.16830
G1 X87.069 Y77.158 E0.01294
G1 X87.069 Y99.173 E0.69028
G1 X87.823 Y99.173 E0.02365
G1 X87.823 Y77.158 E0.69028
G1 X88.445 Y77.158 E0.01952
G1 X88.445 Y75.369 E0.05610
G1 X88.577 Y75.369 E0.00413
G1 X88.577 Y101.132 E0.80780
M204 S1000
G1 F8640
G1 X88.577 Y97.841 E-0.76000
G1 E-0.04000 F2100.00000
G1 Z0.800 F10800.000
G1 X90.840 Y102.922
G1 Z0.200
G1 E0.80000 F2100.00000
M204 S500
G1 F1200
G1 X90.840 Y96.551 E0.19976
G1 X90.085 Y96.551 E0.02365
G1 X90.085 Y100.963 E0.13834
G1 X89.331 Y100.963 E0.02365
G1 X89.331 Y75.369 E0.80248
G1 X90.085 Y75.369 E0.02365
G1 X90.085 Y81.570 E0.19444
G1 X90.840 Y81.570 E0.02365
G1 X90.840 Y71.790 E0.30664
G1 X91.594 Y71.790 E0.02365
G1 X91.594 Y102.922 E0.97611
M204 S1000
G1 F8640
G1 X91.594 Y99.630 E-0.76000
G1 E-0.04000 F2100.00000
G1 Z0.800 F10800.000
G1 X115.222 Y95.470
G1 Z0.200
G1 E0.80000 F2100.00000
M204 S500
G1 F1200
G1 X115.222 Y96.217 E0.01597
G1 X115.711 Y96.217 E0.01046
G1 X115.711 Y94.995 E0.02613
G1 X116.056 Y94.428 E0.01418
G1 X115.711 Y94.428 E0.00737
G1 X115.711 Y93.817 E0.01306
G1 X115.946 Y93.039 E0.01737
G1 X116.087 Y92.269 E0.01675
G1 X116.180 Y91.216 E0.02258
G1 X116.187 Y89.314 E0.04066
G1 X116.009 Y86.888 E0.05200
G1 X115.880 Y85.995 E0.01930
G1 X115.711 Y85.154 E0.01832
G1 X115.711 Y83.692 E0.03125
G1 X116.201 Y83.692 E0.01046
G1 X116.201 Y96.217 E0.26774
G1 X116.451 Y96.217 E0.00536
G1 X116.451 Y94.428 E0.03825
G1 X116.690 Y94.428 E0.00510
G1 X116.690 Y85.482 E0.19124
G1 X117.179 Y85.482 E0.01046
G1 X117.179 Y94.428 E0.19124
G1 X117.668 Y94.428 E0.01046
G1 X117.668 Y85.482 E0.19124
G1 X118.158 Y85.482 E0.01046
G1 X118.158 Y94.558 E0.19402
M204 S1000
G1 F8640
G1 X118.158 Y91.267 E-0.76000
G1 E-0.04000 F2100.00000
G1 Z0.800 F10800.000
G1 X115.727 Y93.200
G1 Z0.200
G1 E0.80000 F2100.00000
M204 S500
G1 F1200
G1 X115.727 Y86.080 E0.22327
M204 S1000
G1 F8640
G1 X115.727 Y89.371 E-0.76000
G1 E-0.04000 F2100.00000
G1 Z0.800 F10800.000
G1 X117.989 Y76.988
G1 Z0.200
G1 E0.80000 F2100.00000
M204 S500
G1 F1200
G1 X117.989 Y85.148 E0.25586
G1 X117.235 Y85.148 E0.02365
G1 X117.235 Y73.579 E0.36274
G1 X116.481 Y73.579 E0.02365
G1 X116.481 Y83.359 E0.30664
G1 X115.727 Y83.359 E0.02365
G1 X115.727 Y71.790 E0.36274
G1 X114.973 Y71.790 E0.02365
G1 X114.973 Y88.148 E0.51290
G1 X114.219 Y88.148 E0.02365
G1 X114.219 Y71.790 E0.51290
G1 X114.039 Y71.790 E0.00561
G1 X114.039 Y70.001 E0.05610
G1 X113.464 Y70.001 E0.01803
G1 X113.464 Y85.187 E0.47615
G1 X113.110 Y83.603 E0.05089
G1 X112.710 Y82.386 E0.04015
G1 X112.710 Y70.001 E0.38834
G1 X112.250 Y70.001 E0.01442
G1 X112.250 Y68.212 E0.05610
G1 X111.956 Y68.212 E0.00922
G1 X111.956 Y80.342 E0.38035
G1 X111.353 Y78.884 E0.04948
G1 X111.202 Y78.575 E0.01078
G1 X111.202 Y68.212 E0.32494
G1 X110.461 Y68.212 E0.02323
G1 X110.461 Y66.422 E0.05610
G1 X110.448 Y66.422 E0.00041
G1 X110.448 Y77.044 E0.33302
G1 X109.926 Y76.086 E0.03419
G1 X109.694 Y75.707 E0.01394
G1 X109.694 Y66.422 E0.29112
G1 X108.939 Y66.422 E0.02365
G1 X108.939 Y74.430 E0.25106
G1 X108.185 Y73.248 E0.04394
G1 X108.185 Y64.633 E0.27013
G1 X107.431 Y64.633 E0.02365
G1 X107.431 Y72.132 E0.23511
G1 X106.829 Y71.210 E0.03453
G1 X106.677 Y71.007 E0.00794
G1 X106.677 Y64.633 E0.19985
G1 X105.923 Y64.633 E0.02365
G1 X105.923 Y69.873 E0.16429
G1 X105.584 Y69.369 E0.01903
G1 X105.169 Y68.842 E0.02106
G1 X105.169 Y64.633 E0.13196
G1 X104.414 Y64.633 E0.02365
G1 X104.414 Y68.160 E0.11060
G1 X104.278 Y68.053 E0.00544
G1 X104.101 Y67.967 E0.00616
G1 X103.660 Y67.835 E0.01443
G1 X103.660 Y64.633 E0.10041
G1 X102.906 Y64.633 E0.02365
G1 X102.906 Y67.842 E0.10061
G1 X102.462 Y67.984 E0.01461
G1 X102.248 Y68.100 E0.00765
G1 X102.152 Y68.193 E0.00419
G1 X102.152 Y64.633 E0.11162
G1 X101.398 Y64.633 E0.02365
G1 X101.398 Y68.885 E0.13331
M73 Q0 S138
G1 X101.016 Y69.369 E0.01934
G1 X100.644 Y69.921 E0.02088
G1 X100.644 Y64.633 E0.16580
M73 P0 R137
G1 X99.890 Y64.633 E0.02365
G1 X99.890 Y71.057 E0.20143
G1 X99.772 Y71.209 E0.00603
G1 X99.135 Y72.180 E0.03640
G1 X99.135 Y64.633 E0.23664
G1 X98.381 Y64.633 E0.02365
G1 X98.381 Y73.300 E0.27174
G1 X97.627 Y74.484 E0.04403
G1 X97.627 Y64.633 E0.30889
G1 X97.392 Y64.633 E0.00738
G1 X97.392 Y66.422 E0.05610
G1 X96.873 Y66.422 E0.01627
G1 X96.873 Y75.766 E0.29296
G1 X96.674 Y76.086 E0.01182
G1 X96.119 Y77.098 E0.03618
G1 X96.119 Y66.422 E0.33472
G1 X95.603 Y66.422 E0.01618
G1 X95.603 Y68.212 E0.05610
G1 X95.365 Y68.212 E0.00746
G1 X95.365 Y78.648 E0.32723
G1 X95.248 Y78.884 E0.00826
G1 X94.610 Y80.405 E0.05171
G1 X94.610 Y68.212 E0.38232
G1 X93.856 Y68.212 E0.02365
G1 X93.856 Y82.489 E0.44765
G1 X93.516 Y83.516 E0.03393
G1 X93.102 Y85.220 E0.05499
G1 X93.102 Y70.001 E0.47719
G1 X92.348 Y70.001 E0.02365
G1 X92.348 Y102.752 E1.02689
G1 X93.102 Y102.752 E0.02365
G1 X93.102 Y93.663 E0.28499
G1 X93.356 Y94.327 E0.02230
G1 X93.712 Y94.981 E0.02336
G1 X93.856 Y95.205 E0.00836
G1 X93.856 Y102.752 E0.23662
G1 X94.610 Y102.752 E0.02365
G1 X94.610 Y96.187 E0.20585
G1 X95.248 Y96.807 E0.02791
G1 X95.365 Y96.889 E0.00445
G1 X95.365 Y102.752 E0.18382
G1 X96.119 Y102.752 E0.02365
G1 X96.119 Y97.499 E0.16469
G1 X96.873 Y98.023 E0.02880
G1 X96.873 Y102.752 E0.14825
G1 X97.627 Y102.752 E0.02365
G1 X97.627 Y98.398 E0.13652
G1 X97.849 Y98.504 E0.00771
G1 X98.381 Y98.692 E0.01770
G1 X98.381 Y102.752 E0.12729
G1 X99.135 Y102.752 E0.02365
G1 X99.135 Y98.776 E0.12466
G1 X99.430 Y98.808 E0.00930
G1 X99.890 Y98.923 E0.01484
G1 X99.890 Y102.752 E0.12004
G1 X100.644 Y102.752 E0.02365
G1 X100.644 Y99.023 E0.11693
G1 X100.888 Y99.030 E0.00765
G1 X101.398 Y98.996 E0.01603
G1 X101.398 Y102.752 E0.11775
G1 X102.152 Y102.752 E0.02365
G1 X102.152 Y98.934 E0.11971
G1 X102.906 Y98.827 E0.02388
G1 X102.906 Y102.752 E0.12306
G1 X103.660 Y102.752 E0.02365
G1 X103.660 Y98.822 E0.12320
G1 X104.414 Y98.929 E0.02388
G1 X104.414 Y102.752 E0.11985
G1 X105.169 Y102.752 E0.02365
G1 X105.169 Y98.994 E0.11782
G1 X105.712 Y99.030 E0.01707
G1 X105.923 Y99.024 E0.00662
G1 X105.923 Y102.752 E0.11689
G1 X106.677 Y102.752 E0.02365
G1 X106.677 Y98.932 E0.11978
G1 X107.170 Y98.808 E0.01593
G1 X107.431 Y98.779 E0.00825
G1 X107.431 Y102.752 E0.12455
G1 X108.185 Y102.752 E0.02365
G1 X108.185 Y98.697 E0.12715
G1 X108.749 Y98.504 E0.01868
G1 X108.939 Y98.413 E0.00661
G1 X108.939 Y102.752 E0.13604
G1 X109.694 Y102.752 E0.02365
G1 X109.694 Y98.044 E0.14762
G1 X110.448 Y97.522 E0.02875
G1 X110.448 Y102.752 E0.16397
G1 X111.202 Y102.752 E0.02365
G1 X111.202 Y96.914 E0.18303
G1 X111.350 Y96.808 E0.00571
G1 X111.956 Y96.216 E0.02657
G1 X111.956 Y102.752 E0.20494
G1 X112.710 Y102.752 E0.02365
G1 X112.710 Y95.229 E0.23587
G1 X112.941 Y94.906 E0.01245
G1 X113.464 Y93.746 E0.03991
G1 X113.464 Y102.752 E0.28238
G1 X114.219 Y102.752 E0.02365
G1 X114.219 Y91.761 E0.34460
G1 X114.973 Y91.761 E0.02365
G1 X114.973 Y95.461 E0.11601
G1 X114.810 Y95.683 E0.00861
G1 X114.329 Y96.171 E0.02149
G1 X114.329 Y96.551 E0.01192
G1 X114.973 Y96.551 E0.02019
G1 X114.973 Y102.752 E0.19444
G1 X115.727 Y102.752 E0.02365
G1 X115.727 Y96.551 E0.19444
G1 X116.481 Y96.551 E0.02365
G1 X116.481 Y100.963 E0.13834
G1 X117.235 Y100.963 E0.02365
G1 X117.235 Y94.761 E0.19444
G1 X117.989 Y94.761 E0.02365
G1 X117.989 Y100.963 E0.19444
G1 X118.744 Y100.963 E0.02365
G1 X118.744 Y77.158 E0.74638
G1 X119.407 Y77.158 E0.02081
G1 X119.407 Y80.736 E0.11220
G1 X119.498 Y80.736 E0.00283
G1 X119.498 Y97.384 E0.52198
G1 X120.252 Y97.384 E0.02365
G1 X120.252 Y80.736 E0.52198
G1 X121.006 Y80.736 E0.02365
G1 X121.006 Y97.554 E0.52730
M204 S1000
G1 F8640
G1 X121.006 Y94.262 E-0.76000
G1 E-0.04000 F2100.00000
G1 Z0.800 F10800.000
G1 X144.150 Y107.214
G1 Z0.200
G1 E0.80000 F2100.00000
M204 S500
G1 F1200
G1 X145.054 Y107.986 E0.03729
G1 X148.970 Y112.449 E0.18617
G1 X152.541 Y117.710 E0.19935
G1 X155.640 Y123.563 E0.20767
G1 X158.149 Y129.792 E0.21054
G1 X159.130 Y133.215 E0.11165
G1 X157.586 Y135.357 E0.08279
G1 X154.973 Y137.794 E0.11203
G1 X151.947 Y139.660 E0.11146
G1 X148.622 Y140.882 E0.11107
G1 X145.129 Y141.416 E0.11081
G1 X141.602 Y141.236 E0.11072
G1 X138.177 Y140.355 E0.11087
G1 X134.985 Y138.803 E0.11128
G1 X132.155 Y136.643 E0.11166
G1 X129.787 Y133.954 E0.11233
G1 X129.230 Y132.998 E0.03469
G1 X130.149 Y129.792 E0.10458
G1 X132.656 Y123.563 E0.21052
G1 X135.755 Y117.710 E0.20767
G1 X139.326 Y112.449 E0.19936
G1 X143.267 Y107.964 E0.18719
G1 X144.104 Y107.253 E0.03446
M204 S1000
G1 X144.149 Y107.709 F10800.000
M204 S500
G1 F1200
G1 X144.789 Y108.255 E0.02637
G1 X148.671 Y112.680 E0.18458
G1 X152.217 Y117.905 E0.19797
G1 X155.298 Y123.722 E0.20641
G1 X157.792 Y129.915 E0.20931
G1 X158.717 Y133.143 E0.10530
G1 X157.301 Y135.107 E0.07589
G1 X154.743 Y137.493 E0.10969
G1 X151.781 Y139.319 E0.10909
G1 X148.528 Y140.515 E0.10870
G1 X145.110 Y141.038 E0.10841
G1 X141.659 Y140.862 E0.10833
G1 X138.308 Y139.999 E0.10849
G1 X135.184 Y138.481 E0.10891
G1 X132.413 Y136.365 E0.10931
G1 X130.094 Y133.732 E0.11001
G1 X129.636 Y132.947 E0.02849
G1 X130.506 Y129.915 E0.09892
G1 X132.998 Y123.722 E0.20929
G1 X136.079 Y117.905 E0.20641
G1 X139.625 Y112.680 E0.19797
G1 X143.532 Y108.234 E0.18559
G1 X144.104 Y107.748 E0.02353
M204 S1000
G1 X144.412 Y107.408 F10800.000
G1 X143.378 Y107.375
M204 S500
G1 F1200
G1 X143.002 Y107.695 E0.01548
G1 X139.027 Y112.218 E0.18879
G1 X135.432 Y117.515 E0.20074
G1 X132.313 Y123.404 E0.20894
G1 X129.792 Y129.669 E0.21175
G1 X128.823 Y133.049 E0.11023
G1 X129.479 Y134.176 E0.04089
G1 X131.896 Y136.920 E0.11466
G1 X134.787 Y139.126 E0.11401
G1 X138.047 Y140.711 E0.11365
G1 X140.907 Y141.447 E0.09261
G1 X127.141 Y141.447 E0.43163
G1 X127.141 Y107.375 E1.06829
G1 X143.318 Y107.375 E0.50721
M204 S1000
G1 F8640
G1 X143.002 Y107.695 E-0.10383
G1 X141.126 Y109.830 E-0.65617
G1 E-0.04000 F2100.00000
G1 Z0.800 F10800.000
G1 X144.920 Y107.375
G1 Z0.200
G1 E0.80000 F2100.00000
M204 S500
G1 F1200
G1 X161.213 Y107.375 E0.51086
G1 X161.213 Y141.447 E1.06829
G1 X147.425 Y141.447 E0.43231
G1 X148.717 Y141.249 E0.04097
G1 X152.113 Y140.000 E0.11345
G1 X155.203 Y138.095 E0.11382
G1 X157.870 Y135.608 E0.11436
G1 X159.543 Y133.287 E0.08969
G1 X158.506 Y129.669 E0.11801
G1 X155.983 Y123.404 E0.21177
G1 X152.864 Y117.515 E0.20893
G1 X149.269 Y112.218 E0.20073
G1 X145.320 Y107.717 E0.18775
G1 X144.965 Y107.414 E0.01462
M204 S1000
G1 F8640
G1 X148.257 Y107.406 E-0.76000
G1 E-0.04000 F2100.00000
G1 Z0.800 F10800.000
G1 X161.590 Y106.998
G1 Z0.200
G1 E0.80000 F2100.00000
M204 S500
G1 F1200
G1 X161.590 Y141.824 E1.09194
G1 X126.764 Y141.824 E1.09194
G1 X126.764 Y106.998 E1.09194
G1 X161.530 Y106.998 E1.09006
M204 S1000
G1 X161.967 Y106.621 F10800.000
M204 S500
G1 F1200
G1 X161.967 Y142.201 E1.11559
G1 X126.387 Y142.201 E1.11559
G1 X126.387 Y106.621 E1.11559
G1 X161.907 Y106.621 E1.11370
M73 Q1 S137
M73 P1 R136
M204 S1000
G1 X161.863 Y107.007 F10800.000
G1 F8640
G1 X161.913 Y109.912 E-0.76000
G1 E-0.04000 F2100.00000
G1 Z0.800 F10800.000
G1 X161.100 Y108.259
G1 Z0.200
G1 E0.80000 F2100.00000
M204 S500
G1 F1200
G1 X160.498 Y107.658 E0.02696
G1 X159.959 Y107.658 E0.01709
G1 X160.930 Y108.629 E0.04352
G1 X160.930 Y109.168 E0.01709
G1 X159.420 Y107.658 E0.06769
G1 X158.881 Y107.658 E0.01709
G1 X160.930 Y109.707 E0.09187
G1 X160.930 Y110.246 E0.01709
G1 X158.342 Y107.658 E0.11604
G1 X157.803 Y107.658 E0.01709
G1 X160.930 Y110.785 E0.14021
G1 X160.930 Y111.325 E0.01709
G1 X157.263 Y107.658 E0.16438
G1 X156.724 Y107.658 E0.01709
G1 X160.930 Y111.864 E0.18855
G1 X160.930 Y112.403 E0.01709
G1 X156.185 Y107.658 E0.21272
G1 X155.646 Y107.658 E0.01709
G1 X160.930 Y112.942 E0.23689
G1 X160.930 Y113.481 E0.01709
G1 X155.107 Y107.658 E0.26106
G1 X154.568 Y107.658 E0.01709
G1 X160.930 Y114.020 E0.28523
G1 X160.930 Y114.559 E0.01709
G1 X154.029 Y107.658 E0.30940
G1 X153.489 Y107.658 E0.01709
