; generated by PrusaSlicer 2.1.0+win64 on 2019-11-25 at 19:44:11 UTC

; 

; external perimeters extrusion width = 0.45mm
; perimeters extrusion width = 0.45mm
; infill extrusion width = 0.45mm
; solid infill extrusion width = 0.45mm
; top infill extrusion width = 0.40mm
; first layer extrusion width = 0.42mm

M73 P0 R15
M73 Q0 S15
M201 X1000 Y1000 Z1000 E5000 ; sets maximum accelerations, mm/sec^2
M203 X200 Y200 Z12 E120 ; sets maximum feedrates, mm/sec
M204 P1250 R1250 T1250 ; sets acceleration (P, T) and retract acceleration (R), mm/sec^2
M205 X8.00 Y8.00 Z0.40 E1.50 ; sets the jerk limits, mm/sec
M205 S0 T0 ; sets the minimum extruding and travel feed rate, mm/sec
M107
M862.3 P "MK3S" ; printer model check
M862.1 P0.4 ; nozzle diameter check
M115 U3.8.0 ; tell printer latest fw version
G90 ; use absolute coordinates
M83 ; extruder relative mode
M104 S215 ; set extruder temp
M140 S60 ; set bed temp
M190 S60 ; wait for bed temp
M109 S215 ; wait for extruder temp
G28 W ; home all without mesh bed level
G80 ; mesh bed leveling
G1 Y-3.0 F1000.0 ; go outside print area
G92 E0.0
G1 X60.0 E9.0 F1000.0 ; intro line
M73 Q0 S15
M73 P0 R15
G1 X100.0 E12.5 F1000.0 ; intro line
G92 E0.0
M221 S95
G21 ; set units to millimeters
G90 ; use absolute coordinates
M83 ; use relative distances for extrusion
M900 K30 ; Filament gcode
;BEFORE_LAYER_CHANGE
G92 E0.0
;0.2


G1 E-0.80000 F2100.00000
G1 Z0.600 F10800.000
;AFTER_LAYER_CHANGE
;0.2
G1 X82.021 Y102.195
G1 Z0.200
G1 E0.80000 F2100.00000
M204 S1000
G1 F1200
G1 X82.492 Y101.169 E0.03541
G1 X84.437 Y98.025 E0.11593
G1 X84.896 Y97.415 E0.02392
G1 X85.419 Y96.898 E0.02305
G1 X93.417 Y90.141 E0.32828
G1 X94.187 Y89.631 E0.02897
G1 X95.037 Y89.268 E0.02897
G1 X95.784 Y89.087 E0.02410
G1 X124.193 Y84.525 E0.90217
G1 X125.003 Y84.461 E0.02549
G1 X125.742 Y84.515 E0.02322
G1 X126.465 Y84.676 E0.02322
G1 X128.064 Y85.379 E0.05478
G1 X129.379 Y86.301 E0.05033
G1 X131.101 Y88.035 E0.07662
G1 X134.870 Y92.472 E0.18255
G1 X136.153 Y94.111 E0.06526
G1 X137.517 Y96.034 E0.07394
G1 X139.288 Y99.009 E0.10856
G1 X140.862 Y102.367 E0.11627
G1 X141.592 Y104.378 E0.06708
G1 X142.154 Y106.860 E0.07980
G1 X142.446 Y109.754 E0.09119
G1 X142.446 Y112.934 E0.09972
G1 X142.142 Y115.121 E0.06923
G1 X141.698 Y116.639 E0.04957
G1 X141.241 Y117.703 E0.03633
G1 X140.694 Y118.680 E0.03511
G1 X139.662 Y120.107 E0.05520
G1 X138.685 Y121.137 E0.04453
G1 X137.437 Y122.160 E0.05057
G1 X136.013 Y123.056 E0.05275
G1 X134.536 Y123.766 E0.05140
G1 X132.836 Y124.417 E0.05709
G1 X131.267 Y124.887 E0.05134
G1 X129.750 Y125.222 E0.04872
G1 X128.065 Y125.437 E0.05325
G1 X122.987 Y125.499 E0.15921
G1 X93.961 Y124.715 E0.91045
G1 X93.122 Y124.599 E0.02653
G1 X92.314 Y124.347 E0.02653
G1 X91.560 Y123.964 E0.02653
G1 X90.879 Y123.462 E0.02653
G1 X90.238 Y122.788 E0.02915
G1 X89.733 Y122.014 E0.02897
G1 X82.311 Y107.658 E0.50672
G1 X81.891 Y106.497 E0.03870
G1 X81.768 Y105.587 E0.02880
G1 X81.765 Y103.645 E0.06091
G1 X81.840 Y102.913 E0.02305
G1 X82.006 Y102.253 E0.02134
G1 F8640
G1 X82.492 Y101.169 E-0.27437
G1 X83.599 Y99.380 E-0.48563
G1 E-0.04000 F2100.00000
G1 Z0.800 F10800.000
G1 X110.845 Y108.961
G1 Z0.200
G1 E0.80000 F2100.00000
G1 F1200
G1 X110.096 Y109.494 E0.02885
G1 X108.806 Y109.987 E0.04328
G1 X105.092 Y110.050 E0.11648
G1 X105.092 Y120.158 E0.31695
G1 X104.559 Y121.891 E0.05685
G1 X104.016 Y122.660 E0.02949
G1 X103.313 Y123.344 E0.03074
G1 X102.324 Y123.959 E0.03654
G1 X100.904 Y124.345 E0.04615
G1 X93.530 Y124.319 E0.23118
G1 X92.290 Y123.963 E0.04047
G1 X91.212 Y123.277 E0.04007
G1 X90.582 Y122.644 E0.02798
G1 X90.073 Y121.929 E0.02753
G1 X89.546 Y120.350 E0.05221
G1 X89.521 Y110.073 E0.32224
G1 X86.363 Y110.069 E0.09900
G1 X85.122 Y109.782 E0.03995
G1 X84.064 Y109.192 E0.03797
G1 X83.032 Y108.166 E0.04565
G1 X82.234 Y106.492 E0.05814
G1 X82.139 Y105.742 E0.02370
G1 X82.173 Y103.043 E0.08463
G1 X82.456 Y102.009 E0.03362
G1 X83.023 Y101.003 E0.03619
G1 X83.906 Y100.090 E0.03983
G1 X84.058 Y99.978 E0.00593
G1 X84.080 Y99.806 E0.00545
G1 X84.373 Y98.870 E0.03074
G1 X84.997 Y97.846 E0.03761
G1 X85.741 Y97.096 E0.03310
G1 X86.562 Y96.543 E0.03104
G1 X88.002 Y96.083 E0.04741
G1 X89.529 Y96.062 E0.04789
G1 X89.555 Y95.648 E0.01300
G1 X90.019 Y94.224 E0.04695
G1 X90.557 Y93.435 E0.02996
G1 X91.438 Y92.587 E0.03834
G1 X92.343 Y92.088 E0.03240
G1 X92.776 Y91.313 E0.02784
G1 X93.603 Y90.450 E0.03746
G1 X94.595 Y89.810 E0.03702
G1 X95.862 Y89.429 E0.04150
G1 X98.792 Y89.430 E0.09186
G1 X99.840 Y89.712 E0.03403
G1 X100.865 Y90.294 E0.03696
G1 X101.947 Y91.402 E0.04855
G1 X102.333 Y92.116 E0.02544
G1 X103.172 Y92.588 E0.03020
G1 X104.040 Y93.421 E0.03769
G1 X104.596 Y94.238 E0.03100
G1 X105.042 Y95.567 E0.04396
G1 X105.072 Y96.086 E0.01628
G1 X106.986 Y96.153 E0.06006
G1 X108.269 Y96.658 E0.04321
G1 X108.936 Y97.155 E0.02608
G1 X109.588 Y97.820 E0.02920
G1 X110.198 Y98.787 E0.03586
G1 X110.524 Y99.775 E0.03262
G1 X110.546 Y99.949 E0.00551
G1 X111.391 Y100.762 E0.03678
G1 X112.209 Y102.064 E0.04820
G1 X112.720 Y100.629 E0.04777
G1 X112.910 Y100.186 E0.01511
G1 X113.132 Y99.596 E0.01975
G1 X113.771 Y98.088 E0.05136
G1 X114.293 Y96.993 E0.03804
G1 X114.624 Y96.415 E0.02089
G1 X114.974 Y95.717 E0.02449
G1 X115.242 Y95.283 E0.01599
G1 X115.643 Y94.539 E0.02650
G1 X116.226 Y93.525 E0.03667
G1 X116.504 Y93.112 E0.01562
G1 X117.036 Y92.220 E0.03256
G1 X117.550 Y91.508 E0.02753
G1 X118.049 Y90.690 E0.03002
G1 X118.317 Y90.321 E0.01431
G1 X119.166 Y88.964 E0.05019
G1 X120.028 Y87.809 E0.04519
G1 X120.548 Y87.247 E0.02400
G1 X121.405 Y86.514 E0.03535
G1 X122.421 Y85.919 E0.03693
G1 X123.424 Y85.559 E0.03340
G1 X124.355 Y85.360 E0.02985
G1 X125.642 Y85.360 E0.04037
G1 X126.662 Y85.586 E0.03273
G1 X127.656 Y85.955 E0.03324
G1 X128.624 Y86.537 E0.03543
G1 X129.450 Y87.246 E0.03412
G1 X129.894 Y87.716 E0.02029
G1 X130.806 Y88.923 E0.04743
G1 X131.683 Y90.321 E0.05174
G1 X131.951 Y90.690 E0.01432
G1 X132.450 Y91.508 E0.03002
G1 X132.964 Y92.220 E0.02753
G1 X133.496 Y93.112 E0.03256
G1 X133.774 Y93.525 E0.01562
G1 X134.357 Y94.539 E0.03667
G1 X134.758 Y95.283 E0.02650
G1 X135.026 Y95.717 E0.01599
G1 X135.377 Y96.418 E0.02458
G1 X135.716 Y97.009 E0.02137
G1 X136.222 Y98.074 E0.03696
G1 X136.868 Y99.596 E0.05186
G1 X137.091 Y100.188 E0.01983
G1 X137.277 Y100.622 E0.01480
G1 X137.605 Y101.528 E0.03021
G1 X138.049 Y102.874 E0.04445
G1 X138.366 Y103.920 E0.03427
G1 X138.614 Y104.904 E0.03182
G1 X138.779 Y105.716 E0.02598
G1 X138.939 Y106.722 E0.03191
G1 X139.058 Y107.757 E0.03268
G1 X139.193 Y109.772 E0.06333
G1 X139.229 Y111.817 E0.06411
G1 X139.197 Y112.804 E0.03097
G1 X139.120 Y113.784 E0.03083
G1 X138.974 Y114.802 E0.03225
G1 X138.785 Y115.646 E0.02710
G1 X138.352 Y116.945 E0.04294
G1 X137.849 Y118.000 E0.03664
G1 X137.245 Y118.987 E0.03629
G1 X136.410 Y120.057 E0.04256
G1 X135.506 Y120.986 E0.04063
G1 X134.464 Y121.859 E0.04262
G1 X133.577 Y122.515 E0.03461
G1 X132.946 Y122.887 E0.02298
G1 X131.769 Y123.492 E0.04148
G1 X131.029 Y123.782 E0.02490
G1 X130.234 Y123.998 E0.02585
G1 X129.367 Y124.113 E0.02741
G1 X128.278 Y124.341 E0.03490
G1 X127.230 Y124.371 E0.03286
G1 X125.494 Y124.239 E0.05460
G1 X125.000 Y124.167 E0.01566
G1 X124.506 Y124.239 E0.01566
G1 X122.770 Y124.371 E0.05458
G1 X121.760 Y124.345 E0.03169
G1 X120.632 Y124.112 E0.03611
G1 X119.679 Y123.980 E0.03016
G1 X118.902 Y123.760 E0.02533
G1 X118.161 Y123.458 E0.02509
G1 X116.386 Y122.493 E0.06333
G1 X115.559 Y121.877 E0.03235
G1 X114.980 Y121.378 E0.02397
G1 X114.666 Y121.137 E0.01241
G1 X113.715 Y120.197 E0.04191
G1 X112.929 Y119.232 E0.03901
G1 X112.277 Y118.226 E0.03760
G1 X111.747 Y117.180 E0.03676
G1 X111.343 Y116.095 E0.03629
G1 X111.060 Y114.976 E0.03621
G1 X110.888 Y113.855 E0.03553
G1 X110.802 Y112.793 E0.03342
G1 X110.771 Y111.802 E0.03109
G1 X110.774 Y110.819 E0.03082
G1 X110.843 Y109.021 E0.05642
G1 F8640
G1 X110.096 Y109.494 E-0.20429
G1 X108.806 Y109.987 E-0.31873
G1 X107.780 Y110.004 E-0.23698
G1 E-0.04000 F2100.00000
G1 Z0.800 F10800.000
G1 X111.307 Y107.929
G1 Z0.200
G1 E0.80000 F2100.00000
G1 F1200
G1 X110.506 Y108.736 E0.03566
G1 X109.934 Y109.153 E0.02218
G1 X108.766 Y109.611 E0.03935
G1 X104.715 Y109.679 E0.12702
G1 X104.715 Y120.130 E0.32769
G1 X104.233 Y121.699 E0.05147
G1 X103.739 Y122.403 E0.02696
G1 X103.094 Y123.036 E0.02833
G1 X102.196 Y123.604 E0.03332
G1 X100.879 Y123.968 E0.04285
G1 X93.559 Y123.942 E0.22951
G1 X92.422 Y123.609 E0.03714
G1 X91.464 Y122.996 E0.03567
G1 X90.880 Y122.413 E0.02588
G1 X90.396 Y121.733 E0.02615
G1 X89.923 Y120.319 E0.04677
G1 X89.897 Y109.696 E0.33307
G1 X86.385 Y109.692 E0.11013
G1 X85.280 Y109.438 E0.03553
G1 X84.311 Y108.906 E0.03468
G1 X83.321 Y107.921 E0.04378
G1 X82.604 Y106.414 E0.05234
G1 X82.517 Y105.733 E0.02152
G1 X82.550 Y103.073 E0.08341
G1 X82.813 Y102.133 E0.03061
G1 X83.310 Y101.248 E0.03183
G1 X84.162 Y100.368 E0.03840
G1 X84.423 Y100.188 E0.00995
G1 X84.447 Y99.895 E0.00921
G1 X84.726 Y99.005 E0.02924
G1 X85.281 Y98.095 E0.03343
G1 X85.969 Y97.396 E0.03075
G1 X86.703 Y96.894 E0.02789
G1 X88.089 Y96.451 E0.04561
G1 X89.899 Y96.437 E0.05675
G1 X89.922 Y95.737 E0.02197
G1 X90.369 Y94.368 E0.04515
G1 X90.856 Y93.666 E0.02678
G1 X91.680 Y92.877 E0.03578
G1 X92.621 Y92.367 E0.03356
G1 X93.066 Y91.555 E0.02903
G1 X93.859 Y90.727 E0.03594
G1 X94.775 Y90.142 E0.03409
G1 X95.891 Y89.806 E0.03652
G1 X98.720 Y89.801 E0.08872
G1 X99.676 Y90.052 E0.03096
G1 X100.655 Y90.609 E0.03532
G1 X101.656 Y91.644 E0.04517
G1 X102.051 Y92.391 E0.02650
G1 X102.929 Y92.878 E0.03146
G1 X103.765 Y93.680 E0.03631
G1 X104.247 Y94.383 E0.02674
G1 X104.675 Y95.660 E0.04222
G1 X104.705 Y96.453 E0.02490
G1 X106.879 Y96.516 E0.06820
G1 X108.106 Y96.999 E0.04135
G1 X108.677 Y97.429 E0.02242
G1 X109.280 Y98.038 E0.02686
G1 X109.866 Y98.968 E0.03445
G1 X110.157 Y99.866 E0.02962
G1 X110.185 Y100.186 E0.01006
G1 X110.398 Y100.322 E0.00794
G1 X111.111 Y101.016 E0.03118
G1 X111.779 Y102.090 E0.03967
G1 X112.021 Y103.005 E0.02968
G1 X112.302 Y103.014 E0.00882
G1 X112.751 Y101.653 E0.04492
G1 X113.068 Y100.773 E0.02935
G1 X113.260 Y100.327 E0.01522
G1 X113.480 Y99.740 E0.01965
G1 X114.117 Y98.239 E0.05111
G1 X114.630 Y97.162 E0.03742
G1 X114.957 Y96.594 E0.02054
G1 X115.308 Y95.893 E0.02456
G1 X115.568 Y95.472 E0.01555
G1 X115.972 Y94.724 E0.02663
G1 X116.549 Y93.718 E0.03637
G1 X116.823 Y93.314 E0.01530
G1 X117.356 Y92.420 E0.03264
G1 X117.864 Y91.717 E0.02721
G1 X118.367 Y90.894 E0.03024
G1 X118.629 Y90.532 E0.01401
G1 X119.482 Y89.171 E0.05036
G1 X120.324 Y88.043 E0.04415
G1 X120.802 Y87.527 E0.02204
G1 X121.637 Y86.812 E0.03448
G1 X122.565 Y86.268 E0.03372
G1 X123.539 Y85.918 E0.03244
G1 X124.414 Y85.733 E0.02803
G1 X125.581 Y85.732 E0.03660
G1 X126.567 Y85.951 E0.03167
G1 X127.507 Y86.302 E0.03145
G1 X128.411 Y86.849 E0.03314
G1 X128.806 Y87.206 E0.01669
G1 X129.203 Y87.531 E0.01608
G1 X129.612 Y87.967 E0.01875
G1 X130.500 Y89.144 E0.04622
G1 X131.371 Y90.532 E0.05139
G1 X131.633 Y90.894 E0.01401
G1 X132.136 Y91.717 E0.03024
G1 X132.644 Y92.420 E0.02721
G1 X133.177 Y93.314 E0.03264
G1 X133.451 Y93.718 E0.01530
G1 X134.028 Y94.724 E0.03637
G1 X134.432 Y95.472 E0.02663
G1 X134.692 Y95.893 E0.01555
G1 X135.045 Y96.596 E0.02465
G1 X135.378 Y97.178 E0.02102
G1 X135.876 Y98.225 E0.03635
G1 X136.520 Y99.740 E0.05161
G1 X136.741 Y100.329 E0.01973
G1 X136.929 Y100.765 E0.01490
G1 X137.247 Y101.649 E0.02944
G1 X137.689 Y102.986 E0.04416
G1 X138.004 Y104.025 E0.03406
G1 X138.245 Y104.984 E0.03099
G1 X138.407 Y105.780 E0.02546
G1 X138.566 Y106.777 E0.03165
G1 X138.683 Y107.796 E0.03216
G1 X138.816 Y109.783 E0.06246
G1 X138.852 Y111.818 E0.06382
G1 X138.820 Y112.787 E0.03039
G1 X138.745 Y113.748 E0.03023
G1 X138.601 Y114.741 E0.03145
G1 X138.419 Y115.554 E0.02612
G1 X138.006 Y116.794 E0.04097
G1 X137.522 Y117.812 E0.03534
G1 X136.929 Y118.781 E0.03564
G1 X136.133 Y119.802 E0.04059
G1 X135.257 Y120.703 E0.03940
G1 X134.226 Y121.566 E0.04214
G1 X133.377 Y122.195 E0.03315
G1 X132.768 Y122.555 E0.02216
G1 X131.622 Y123.145 E0.04043
G1 X130.920 Y123.421 E0.02365
G1 X130.172 Y123.626 E0.02432
G1 X129.303 Y123.741 E0.02747
G1 X128.250 Y123.965 E0.03376
G1 X127.249 Y123.994 E0.03139
G1 X125.529 Y123.864 E0.05407
G1 X125.000 Y123.786 E0.01677
G1 X124.471 Y123.864 E0.01677
G1 X122.751 Y123.994 E0.05406
G1 X121.787 Y123.969 E0.03025
G1 X120.696 Y123.740 E0.03494
G1 X119.769 Y123.613 E0.02936
G1 X119.034 Y123.407 E0.02393
G1 X118.313 Y123.113 E0.02442
G1 X116.601 Y122.183 E0.06109
G1 X115.789 Y121.578 E0.03172
G1 X115.217 Y121.085 E0.02370
G1 X114.922 Y120.860 E0.01164
G1 X114.001 Y119.951 E0.04056
G1 X113.228 Y119.002 E0.03837
G1 X112.609 Y118.046 E0.03572
G1 X112.097 Y117.038 E0.03546
G1 X111.706 Y115.993 E0.03499
G1 X111.431 Y114.909 E0.03503
G1 X111.262 Y113.805 E0.03503
G1 X111.179 Y112.777 E0.03235
G1 X111.148 Y111.793 E0.03085
G1 X111.152 Y110.823 E0.03041
G1 X111.217 Y109.122 E0.05337
G1 X111.302 Y107.989 E0.03565
G1 F8640
G1 X110.506 Y108.736 E-0.25220
G1 X109.934 Y109.153 E-0.16337
G1 X108.766 Y109.611 E-0.28979
G1 X108.529 Y109.615 E-0.05464
G1 E-0.04000 F2100.00000
G1 Z0.800 F10800.000
G1 X111.804 Y106.857
G1 Z0.200
G1 E0.80000 F2100.00000
G1 F1200
G1 X111.480 Y106.779 E0.01046
G1 X111.394 Y107.008 E0.00768
G1 X110.898 Y107.804 E0.02940
G1 X110.271 Y108.441 E0.02802
G1 X109.732 Y108.833 E0.02090
G1 X108.662 Y109.247 E0.03598
G1 X104.338 Y109.306 E0.13559
G1 X104.338 Y120.102 E0.33849
G1 X103.907 Y121.508 E0.04611
G1 X103.461 Y122.148 E0.02445
G1 X102.873 Y122.730 E0.02595
G1 X102.066 Y123.249 E0.03009
G1 X100.853 Y123.591 E0.03949
G1 X93.588 Y123.565 E0.22780
G1 X92.556 Y123.256 E0.03376
G1 X91.716 Y122.715 E0.03133
G1 X91.158 Y122.157 E0.02474
G1 X90.720 Y121.538 E0.02379
G1 X90.300 Y120.287 E0.04137
G1 X90.273 Y109.319 E0.34389
G1 X86.406 Y109.315 E0.12126
G1 X85.436 Y109.094 E0.03118
G1 X84.557 Y108.619 E0.03134
G1 X83.610 Y107.677 E0.04188
G1 X82.974 Y106.335 E0.04655
G1 X82.894 Y105.724 E0.01933
G1 X82.927 Y103.104 E0.08217
G1 X83.169 Y102.258 E0.02757
G1 X83.598 Y101.493 E0.02752
G1 X84.418 Y100.646 E0.03694
G1 X84.791 Y100.397 E0.01407
G1 X84.815 Y99.983 E0.01302
G1 X85.079 Y99.140 E0.02770
G1 X85.565 Y98.344 E0.02923
G1 X86.226 Y97.673 E0.02953
G1 X86.847 Y97.243 E0.02370
G1 X88.121 Y96.828 E0.04202
G1 X90.272 Y96.812 E0.06742
G1 X90.290 Y95.826 E0.03091
G1 X90.718 Y94.513 E0.04331
G1 X91.152 Y93.900 E0.02354
G1 X91.921 Y93.169 E0.03327
G1 X92.899 Y92.646 E0.03478
G1 X93.357 Y91.797 E0.03024
G1 X94.115 Y91.005 E0.03439
G1 X94.955 Y90.474 E0.03114
G1 X95.920 Y90.183 E0.03161
G1 X98.651 Y90.172 E0.08563
G1 X99.512 Y90.393 E0.02785
G1 X100.444 Y90.923 E0.03363
G1 X101.364 Y91.884 E0.04173
G1 X101.769 Y92.667 E0.02764
G1 X102.687 Y93.168 E0.03277
G1 X103.490 Y93.939 E0.03492
G1 X103.898 Y94.529 E0.02248
G1 X104.308 Y95.752 E0.04045
G1 X104.334 Y96.823 E0.03360
G1 X106.772 Y96.879 E0.07646
G1 X107.943 Y97.340 E0.03944
G1 X108.419 Y97.705 E0.01881
G1 X108.972 Y98.258 E0.02453
G1 X109.534 Y99.148 E0.03300
G1 X109.790 Y99.956 E0.02657
G1 X109.819 Y100.410 E0.01426
G1 X110.153 Y100.610 E0.01221
G1 X110.831 Y101.270 E0.02966
G1 X111.442 Y102.262 E0.03655
G1 X111.715 Y103.341 E0.03490
G1 X111.695 Y105.455 E0.06629
G1 X112.029 Y105.497 E0.01056
G1 X112.349 Y104.165 E0.04294
G1 X112.671 Y103.098 E0.03495
G1 X113.108 Y101.774 E0.04371
G1 X113.421 Y100.906 E0.02893
G1 X113.610 Y100.467 E0.01497
G1 X113.829 Y99.883 E0.01956
G1 X114.459 Y98.398 E0.05060
G1 X114.967 Y97.331 E0.03706
G1 X115.289 Y96.773 E0.02019
G1 X115.641 Y96.070 E0.02464
G1 X115.895 Y95.661 E0.01510
G1 X116.300 Y94.910 E0.02676
G1 X116.873 Y93.912 E0.03607
G1 X117.141 Y93.517 E0.01498
G1 X117.675 Y92.620 E0.03273
G1 X118.178 Y91.926 E0.02688
G1 X118.684 Y91.097 E0.03046
G1 X118.942 Y90.744 E0.01370
G1 X119.797 Y89.378 E0.05054
G1 X120.620 Y88.276 E0.04311
G1 X121.055 Y87.806 E0.02008
G1 X121.870 Y87.109 E0.03361
G1 X122.709 Y86.617 E0.03051
G1 X123.654 Y86.278 E0.03148
G1 X124.472 Y86.106 E0.02620
G1 X125.520 Y86.105 E0.03285
G1 X126.472 Y86.316 E0.03060
G1 X127.357 Y86.648 E0.02964
G1 X128.199 Y87.161 E0.03088
G1 X128.559 Y87.490 E0.01530
G1 X128.954 Y87.814 E0.01602
