; generated by PrusaSlicer 2.1.0+win64 on 2019-11-24 at 13:45:04 UTC

; 

; external perimeters extrusion width = 0.65mm
; perimeters extrusion width = 0.65mm
; infill extrusion width = 0.70mm
; solid infill extrusion width = 0.70mm
; top infill extrusion width = 0.60mm
; support material extrusion width = 0.55mm
; first layer extrusion width = 0.65mm

; external perimeters extrusion width = 0.65mm
; perimeters extrusion width = 0.65mm
; infill extrusion width = 0.70mm
; solid infill extrusion width = 0.70mm
; top infill extrusion width = 0.60mm
; support material extrusion width = 0.55mm
; first layer extrusion width = 0.65mm

M73 P0 R14
M73 Q0 S14
M201 X1000 Y1000 Z1000 E8000 ; sets maximum accelerations, mm/sec^2
M203 X200 Y200 Z12 E120 ; sets maximum feedrates, mm/sec
M204 P1250 R1250 T1250 ; sets acceleration (P, T) and retract acceleration (R), mm/sec^2
M205 X8.00 Y8.00 Z0.40 E1.50 ; sets the jerk limits, mm/sec
M205 S0 T0 ; sets the minimum extruding and travel feed rate, mm/sec
M107
M862.3 P "MK3SMMU2S" ; printer model check
M862.1 P0.4 ; nozzle diameter check
M115 U3.8.0 ; tell printer latest fw version
G90 ; use absolute coordinates
M83 ; extruder relative mode
M104 S215 ; set extruder temp
M140 S60 ; set bed temp
M190 S60 ; wait for bed temp
M109 S215 ; wait for extruder temp
G28 W ; home all without mesh bed level
G80 ; mesh bed leveling
G21 ; set units to millimeters

; Send the filament type to the MMU2.0 unit.
; E stands for extruder number, F stands for filament type (0: default; 1:flex; 2: PVA)
M403 E0 F0
M403 E1 F0
M403 E2 F0
M403 E3 F0
M403 E4 F0


;go outside print area
G1 Y-3.0 F1000.0
G1 Z0.4 F1000.0
; select extruder
T1
; initial load
G1 X55.0 E29.0 F1073.0
M73 Q2 S14
M73 P2 R14
G1 X5.0 E29.0 F1800.0
G1 X55.0 E8.0 F2000.0
G1 Z0.3 F1000.0
G92 E0.0
G1 X240.0 E25.0 F2200.0
G1 Y-2.0 F1000.0
G1 X55.0 E25 F1400.0
G1 Z0.20 F1000.0
G1 X5.0 E4.0 F1000.0
G92 E0.0


M221 S95
G92 E0.0
G21 ; set units to millimeters
G90 ; use absolute coordinates
M83 ; use relative distances for extrusion
T1
M900 K30 ; Filament gcode
G1 Z0.200 F10800.000
;BEFORE_LAYER_CHANGE
G92 E0.0
;0.2


G1 E-0.80000 F2100.00000
G1 Z0.800 F10800.000
G1 Z0.200
;AFTER_LAYER_CHANGE
;0.2
G1 E-2.20000 F2100.00000
G1 Z0.800 F10800.000
G1 X161.067 Y125.596
G1 Z0.200
G1 E3.00000 F2100.00000
;-------------------------------------
; CP WIPE TOWER FIRST LAYER BRIM START
G1  X161.067 Y143.936 E1.0456 F2400
G1  X158.524 Y144.393  F7000
G1  Y125.139 E0.8050 F2100
G1  X97.610 E2.5466
G1  Y144.393 E0.8050
G1  X158.524 E2.5466
G1  X158.981 Y144.850  F7000
G1  Y124.682 E0.8432 F2100
G1  X97.153 E2.5849
G1  Y144.850 E0.8432
G1  X158.981 E2.5849
G1  X159.438 Y145.307  F7000
G1  Y124.225 E0.8814 F2100
G1  X96.696 E2.6231
G1  Y145.307 E0.8814
G1  X159.438 E2.6231
G1  X159.895 Y145.764  F7000
G1  Y123.768 E0.9196 F2100
G1  X96.239 E2.6613
G1  Y145.764 E0.9196
G1  X159.895 E2.6613
G1  X158.067 Y143.936  F7000
G1  X98.067
G1  X158.067
; CP WIPE TOWER FIRST LAYER BRIM END
;-----------------------------------
G1  X157.567 Y126.096  F7200
;--------------------
; CP EMPTY GRID START
; layer #1
G1  X158.067
G1  Y125.596
G1  Y143.936 E0.6970 F1450
G1  X98.067 E2.2804
G1  Y125.596 E0.6970
G1  X158.067 E2.2804
G1  X157.567
G1  Y126.096
G1  Y143.436 E0.6590
G1  X98.567 E2.2424
G1  Y126.096 E0.6590
G1  X157.567 E2.2424
G1  Y143.436
G1  X157.067 Y142.910  E0.0276
G1  X99.067 E2.2044
G1  Y142.383 E0.0200
G1  X157.067 E2.2044
M73 Q9 S13
M73 P9 R13
G1  Y141.857 E0.0200
G1  X99.067 E2.2044
G1  Y141.331 E0.0200
G1  X157.067 E2.2044
G1  Y140.805 E0.0200
G1  X99.067 E2.2044
G1  Y140.278 E0.0200
G1  X157.067 E2.2044
G1  Y139.752 E0.0200
G1  X99.067 E2.2044
G1  Y139.226 E0.0200
G1  X157.067 E2.2044
G1  Y138.700 E0.0200
G1  X99.067 E2.2044
G1  Y138.173 E0.0200
G1  X157.067 E2.2044
G1  Y137.647 E0.0200
G1  X99.067 E2.2044
G1  Y137.121 E0.0200
G1  X157.067 E2.2044
G1  Y136.595 E0.0200
G1  X99.067 E2.2044
G1  Y136.068 E0.0200
G1  X157.067 E2.2044
G1  Y135.542 E0.0200
G1  X99.067 E2.2044
G1  Y135.016 E0.0200
G1  X157.067 E2.2044
G1  Y134.490 E0.0200
G1  X99.067 E2.2044
G1  Y133.963 E0.0200
G1  X157.067 E2.2044
G1  Y133.437 E0.0200
G1  X99.067 E2.2044
G1  Y132.911 E0.0200
G1  X157.067 E2.2044
G1  Y132.385 E0.0200
G1  X99.067 E2.2044
G1  Y131.858 E0.0200
G1  X157.067 E2.2044
G1  Y131.332 E0.0200
G1  X99.067 E2.2044
G1  Y130.806 E0.0200
G1  X157.067 E2.2044
G1  Y130.280 E0.0200
G1  X99.067 E2.2044
G1  Y129.753 E0.0200
G1  X157.067 E2.2044
G1  Y129.227 E0.0200
G1  X99.067 E2.2044
M73 Q16 S12
M73 P16 R12
G1  Y128.701 E0.0200
G1  X157.067 E2.2044
G1  Y128.175 E0.0200
G1  X99.067 E2.2044
G1  Y127.648 E0.0200
G1  X157.067 E2.2044
G1  Y127.122 E0.0200
G1  X99.067 E2.2044
G1  Y126.596 E0.0200
G1  X157.067 E2.2044
G1  X99.067
; CP EMPTY GRID END
;------------------







G1 F8640
G1 X95.776 Y126.596 E-0.76000
G1 E-0.04000 F2100.00000
G1 Z0.800 F10800.000
G1 X104.882 Y124.223
G1 Z0.200
G1 E0.80000 F2100.00000
M204 S1000
G1 F1200
G1 X104.721 Y122.980 E0.06330
G1 X104.721 Y99.125 E1.20416
G1 X104.777 Y98.381 E0.03764
G1 X104.939 Y97.653 E0.03764
G1 X105.221 Y96.921 E0.03962
G1 X107.892 Y91.435 E0.30799
G1 X112.923 Y83.612 E0.46952
G1 X113.495 Y82.921 E0.04527
G1 X114.178 Y82.340 E0.04527
G1 X115.428 Y81.689 E0.07117
G1 X116.808 Y81.400 E0.07117
G1 X127.860 Y81.387 E0.55788
G1 X128.615 Y81.443 E0.03821
G1 X129.353 Y81.610 E0.03821
G1 X137.016 Y84.172 E0.40787
G1 X137.784 Y84.500 E0.04216
G1 X138.494 Y84.951 E0.04245
G1 X139.121 Y85.512 E0.04245
G1 X139.645 Y86.162 E0.04216
G1 X144.815 Y94.240 E0.48415
G1 X145.241 Y95.366 E0.06077
G1 X147.793 Y106.121 E0.55796
G1 X147.823 Y117.982 E0.59874
G1 X147.606 Y119.392 E0.07201
G1 X145.046 Y125.004 E0.31135
G1 X144.623 Y125.698 E0.04103
G1 X144.096 Y126.316 E0.04103
G1 X143.510 Y126.822 E0.03906
G1 X142.855 Y127.233 E0.03906
G1 X137.631 Y129.832 E0.29453
G1 X136.917 Y130.115 E0.03877
G1 X136.157 Y130.290 E0.03934
G1 X135.386 Y130.349 E0.03906
G1 X114.688 Y130.349 E1.04482
G1 X113.967 Y130.291 E0.03651
G1 X113.255 Y130.132 E0.03680
G1 X107.696 Y127.619 E0.30794
G1 X106.906 Y127.161 E0.04612
G1 X106.213 Y126.574 E0.04583
G1 X105.631 Y125.870 E0.04612
G1 X105.184 Y125.080 E0.04583
G1 X104.902 Y124.280 E0.04281
G1 F8640
G1 X104.721 Y122.980 E-0.30311
G1 X104.721 Y121.001 E-0.45689
G1 E-0.04000 F2100.00000
G1 Z0.800 F10800.000
G1 X140.236 Y89.870
G1 Z0.200
G1 E0.80000 F2100.00000
G1 F1200
G1 X140.879 Y90.311 E0.03935
G1 X141.654 Y91.098 E0.05577
G1 X142.120 Y91.793 E0.04226
G1 X142.298 Y92.198 E0.02230
G1 X142.657 Y92.368 E0.02006
G1 X143.247 Y92.779 E0.03627
G1 X144.151 Y93.700 E0.06514
G1 X144.623 Y94.461 E0.04522
G1 X144.960 Y95.351 E0.04805
G1 X145.092 Y96.181 E0.04242
G1 X145.092 Y102.455 E0.31669
G1 X145.597 Y102.786 E0.03045
G1 X146.425 Y103.586 E0.05814
G1 X146.903 Y104.248 E0.04123
G1 X147.300 Y105.134 E0.04899
G1 X147.508 Y106.101 E0.04993
G1 X147.521 Y118.444 E0.62304
G1 X147.438 Y119.036 E0.03021
G1 X147.128 Y119.897 E0.04615
G1 X146.756 Y120.517 E0.03654
G1 X145.694 Y121.604 E0.07668
G1 X145.294 Y121.879 E0.02451
G1 X145.288 Y123.263 E0.06985
G1 X145.139 Y124.042 E0.04005
G1 X144.750 Y124.990 E0.05173
G1 X144.177 Y125.807 E0.05039
G1 X143.358 Y126.589 E0.05714
G1 X142.710 Y127.006 E0.03892
G1 X141.952 Y127.325 E0.04150
G1 X140.970 Y127.522 E0.05052
G1 X139.685 Y127.529 E0.06487
G1 X139.190 Y128.234 E0.04347
G1 X138.252 Y129.140 E0.06585
G1 X137.489 Y129.601 E0.04499
G1 X136.647 Y129.914 E0.04532
G1 X135.816 Y130.046 E0.04247
G1 X133.731 Y130.046 E0.10529
G1 X133.558 Y130.028 E0.00877
G1 X133.385 Y130.046 E0.00877
G1 X131.302 Y130.046 E0.10513
G1 X131.129 Y130.028 E0.00877
G1 X130.956 Y130.046 E0.00877
G1 X128.874 Y130.046 E0.10513
G1 X128.701 Y130.028 E0.00877
G1 X128.528 Y130.046 E0.00877
G1 X126.446 Y130.046 E0.10513
G1 X126.273 Y130.028 E0.00877
G1 X126.100 Y130.046 E0.00877
G1 X124.017 Y130.046 E0.10513
G1 X123.844 Y130.028 E0.00877
G1 X123.671 Y130.046 E0.00877
G1 X121.589 Y130.046 E0.10513
G1 X121.416 Y130.028 E0.00877
G1 X121.243 Y130.046 E0.00877
G1 X119.161 Y130.046 E0.10512
G1 X118.988 Y130.028 E0.00877
G1 X118.815 Y130.046 E0.00877
G1 X116.732 Y130.046 E0.10512
G1 X116.557 Y130.028 E0.00887
G1 X116.366 Y130.047 E0.00970
G1 X113.828 Y129.994 E0.12816
G1 X113.110 Y129.801 E0.03753
G1 X112.400 Y129.487 E0.03916
G1 X111.723 Y129.025 E0.04141
G1 X110.835 Y128.123 E0.06387
G1 X110.426 Y127.496 E0.03778
G1 X108.839 Y127.478 E0.08010
G1 X108.077 Y127.306 E0.03948
G1 X107.332 Y126.971 E0.04119
G1 X106.796 Y126.594 E0.03310
G1 X105.801 Y125.567 E0.07218
G1 X105.423 Y124.946 E0.03667
G1 X105.127 Y124.146 E0.04309
G1 X105.025 Y123.483 E0.03388
G1 X105.025 Y98.684 E1.25179
G1 X105.171 Y97.822 E0.04413
G1 X105.483 Y96.998 E0.04447
G1 X106.026 Y96.144 E0.05110
G1 X106.845 Y95.317 E0.05876
G1 X107.462 Y94.885 E0.03801
G1 X107.481 Y93.370 E0.07650
G1 X107.663 Y92.572 E0.04131
G1 X107.917 Y91.949 E0.03395
G1 X108.270 Y91.345 E0.03533
G1 X109.317 Y90.246 E0.07659
G1 X109.922 Y89.832 E0.03704
G1 X110.252 Y89.679 E0.01835
G1 X110.481 Y89.175 E0.02794
G1 X110.961 Y88.497 E0.04193
G1 X111.691 Y87.771 E0.05196
G1 X112.313 Y87.350 E0.03796
G1 X112.316 Y86.027 E0.06679
G1 X112.508 Y85.059 E0.04981
G1 X113.004 Y83.976 E0.06012
G1 X113.427 Y83.418 E0.03533
G1 X114.054 Y82.791 E0.04478
G1 X115.007 Y82.157 E0.05774
G1 X115.730 Y81.872 E0.03928
G1 X116.540 Y81.707 E0.04169
G1 X118.813 Y81.690 E0.11475
G1 X118.988 Y81.708 E0.00889
G1 X119.161 Y81.690 E0.00877
G1 X121.243 Y81.690 E0.10513
G1 X121.417 Y81.708 E0.00882
G1 X121.596 Y81.690 E0.00907
G1 X126.100 Y81.691 E0.22738
G1 X126.273 Y81.708 E0.00875
G1 X126.446 Y81.690 E0.00877
G1 X128.300 Y81.690 E0.09361
G1 X129.084 Y81.813 E0.04007
G1 X129.973 Y82.140 E0.04780
G1 X130.729 Y82.598 E0.04461
G1 X131.666 Y83.503 E0.06574
G1 X132.161 Y84.208 E0.04350
G1 X135.959 Y84.221 E0.19171
G1 X137.001 Y84.451 E0.05389
G1 X137.959 Y84.908 E0.05359
G1 X138.534 Y85.350 E0.03661
G1 X139.291 Y86.143 E0.05531
G1 X139.782 Y86.937 E0.04713
G1 X140.079 Y87.709 E0.04175
G1 X140.226 Y88.512 E0.04122
G1 X140.235 Y89.810 E0.06552
G1 F8640
G1 X140.879 Y90.311 E-0.18827
G1 X141.654 Y91.098 E-0.25511
G1 X142.120 Y91.793 E-0.19331
G1 X142.298 Y92.198 E-0.10202
G1 X142.381 Y92.237 E-0.02129
G1 E-0.04000 F2100.00000
G1 Z0.800 F10800.000
G1 X131.762 Y84.815
G1 Z0.200
G1 E0.80000 F2100.00000
G1 F1200
G1 X133.365 Y84.815 E0.08092
G1 X133.558 Y84.838 E0.00978
G1 X133.750 Y84.815 E0.00976
G1 X135.864 Y84.821 E0.10675
G1 X136.777 Y85.016 E0.04708
G1 X137.619 Y85.412 E0.04698
G1 X138.113 Y85.788 E0.03133
G1 X138.830 Y86.539 E0.05243
G1 X139.227 Y87.184 E0.03824
G1 X139.487 Y87.848 E0.03600
G1 X139.624 Y88.594 E0.03831
G1 X139.629 Y90.196 E0.08083
G1 X140.469 Y90.760 E0.05107
G1 X141.201 Y91.502 E0.05261
G1 X141.596 Y92.102 E0.03627
G1 X141.830 Y92.654 E0.03026
G1 X142.335 Y92.884 E0.02799
G1 X142.876 Y93.260 E0.03327
G1 X143.691 Y94.097 E0.05899
G1 X144.090 Y94.752 E0.03869
G1 X144.366 Y95.480 E0.03931
G1 X144.485 Y96.206 E0.03716
G1 X144.485 Y102.790 E0.33233
G1 X145.198 Y103.245 E0.04269
G1 X145.982 Y104.003 E0.05506
G1 X146.390 Y104.574 E0.03543
G1 X146.731 Y105.348 E0.04270
G1 X146.908 Y106.194 E0.04360
G1 X146.914 Y118.421 E0.61724
G1 X146.842 Y118.916 E0.02525
G1 X146.569 Y119.657 E0.03986
G1 X146.257 Y120.170 E0.03031
G1 X145.287 Y121.152 E0.06968
G1 X144.688 Y121.548 E0.03622
G1 X144.681 Y123.230 E0.08493
G1 X144.550 Y123.893 E0.03410
G1 X144.203 Y124.725 E0.04552
G1 X143.734 Y125.390 E0.04108
G1 X143.003 Y126.095 E0.05124
G1 X142.405 Y126.481 E0.03596
G1 X141.748 Y126.752 E0.03588
G1 X140.938 Y126.915 E0.04171
G1 X139.828 Y126.921 E0.05601
G1 X139.628 Y126.899 E0.01019
G1 X139.277 Y126.943 E0.01785
G1 X139.121 Y127.276 E0.01860
G1 X138.744 Y127.822 E0.03345
G1 X137.905 Y128.641 E0.05921
G1 X137.246 Y129.044 E0.03900
G1 X136.517 Y129.320 E0.03931
G1 X135.791 Y129.439 E0.03716
G1 X133.750 Y129.439 E0.10303
G1 X133.558 Y129.417 E0.00978
G1 X133.365 Y129.439 E0.00978
G1 X131.322 Y129.439 E0.10315
G1 X131.129 Y129.417 E0.00978
G1 X130.937 Y129.439 E0.00978
G1 X128.893 Y129.439 E0.10315
G1 X128.701 Y129.417 E0.00978
G1 X128.509 Y129.439 E0.00978
G1 X126.465 Y129.439 E0.10315
G1 X126.273 Y129.417 E0.00978
G1 X126.080 Y129.439 E0.00978
G1 X124.037 Y129.439 E0.10315
G1 X123.844 Y129.417 E0.00978
G1 X123.652 Y129.439 E0.00978
G1 X121.608 Y129.439 E0.10315
G1 X121.416 Y129.417 E0.00978
G1 X121.224 Y129.439 E0.00978
G1 X119.180 Y129.439 E0.10315
G1 X118.988 Y129.417 E0.00978
G1 X118.795 Y129.439 E0.00978
G1 X116.752 Y129.439 E0.10315
G1 X116.559 Y129.416 E0.00983
G1 X116.354 Y129.439 E0.01037
G1 X113.947 Y129.398 E0.12156
G1 X113.333 Y129.235 E0.03205
G1 X112.673 Y128.944 E0.03643
G1 X112.093 Y128.543 E0.03557
G1 X111.293 Y127.723 E0.05784
G1 X110.936 Y127.164 E0.03347
G1 X110.813 Y126.891 E0.01513
G1 X108.936 Y126.878 E0.09472
G1 X108.292 Y126.737 E0.03330
G1 X107.652 Y126.455 E0.03530
G1 X107.208 Y126.147 E0.02728
G1 X106.299 Y125.218 E0.06565
G1 X105.980 Y124.702 E0.03058
G1 X105.721 Y124.018 E0.03693
G1 X105.632 Y123.458 E0.02864
G1 X105.632 Y98.711 E1.24917
G1 X105.764 Y97.958 E0.03862
G1 X106.038 Y97.245 E0.03855
G1 X106.480 Y96.548 E0.04167
G1 X107.255 Y95.766 E0.05560
G1 X107.802 Y95.390 E0.03347
G1 X108.064 Y95.262 E0.01475
G1 X108.088 Y93.412 E0.09338
G1 X108.248 Y92.737 E0.03500
G1 X108.469 Y92.202 E0.02923
G1 X108.774 Y91.685 E0.03033
G1 X109.730 Y90.692 E0.06956
G1 X110.236 Y90.352 E0.03074
G1 X110.714 Y90.140 E0.02641
G1 X110.997 Y89.496 E0.03551
G1 X111.409 Y88.908 E0.03625
G1 X112.097 Y88.224 E0.04897
G1 X112.920 Y87.678 E0.04988
G1 X112.923 Y86.056 E0.08184
G1 X113.076 Y85.275 E0.04020
G1 X113.510 Y84.313 E0.05327
G1 X113.872 Y83.832 E0.03037
G1 X114.462 Y83.241 E0.04217
G1 X115.259 Y82.710 E0.04835
G1 X115.927 Y82.447 E0.03622
G1 X116.628 Y82.309 E0.03605
G1 X118.795 Y82.298 E0.10941
G1 X118.988 Y82.320 E0.00980
G1 X119.180 Y82.298 E0.00978
G1 X121.224 Y82.298 E0.10315
G1 X121.417 Y82.320 E0.00981
G1 X121.614 Y82.297 E0.01001
G1 X123.723 Y82.304 E0.10646
G1 X123.857 Y82.318 E0.00682
G1 X124.037 Y82.298 E0.00914
G1 X126.080 Y82.298 E0.10314
G1 X126.273 Y82.320 E0.00978
G1 X126.465 Y82.298 E0.00978
G1 X128.275 Y82.298 E0.09136
G1 X128.956 Y82.408 E0.03484
G1 X129.731 Y82.698 E0.04178
G1 X130.381 Y83.096 E0.03848
G1 X131.219 Y83.915 E0.05914
G1 X131.596 Y84.460 E0.03345
G1 X131.737 Y84.761 E0.01677
G1 X131.362 Y85.422 F10800.000
G1 F1200
G1 X133.343 Y85.422 E0.10002
G1 X133.558 Y85.451 E0.01092
G1 X133.772 Y85.422 E0.01092
G1 X135.775 Y85.422 E0.10108
G1 X136.556 Y85.582 E0.04026
G1 X137.281 Y85.917 E0.04034
G1 X137.691 Y86.226 E0.02590
G1 X138.368 Y86.934 E0.04946
G1 X138.673 Y87.433 E0.02954
G1 X138.895 Y87.988 E0.03017
G1 X139.021 Y88.676 E0.03530
G1 X139.021 Y90.639 E0.09908
G1 X139.496 Y90.835 E0.02592
G1 X140.059 Y91.209 E0.03412
G1 X140.746 Y91.905 E0.04937
G1 X141.070 Y92.406 E0.03011
G1 X141.361 Y93.112 E0.03854
G1 X142.013 Y93.400 E0.03600
G1 X142.504 Y93.741 E0.03016
G1 X143.230 Y94.494 E0.05278
G1 X143.534 Y94.996 E0.02966
G1 X143.773 Y95.613 E0.03341
G1 X143.878 Y96.233 E0.03170
G1 X143.878 Y103.229 E0.35315
G1 X144.343 Y103.419 E0.02537
G1 X144.800 Y103.705 E0.02720
G1 X145.539 Y104.419 E0.05186
G1 X145.875 Y104.898 E0.02957
G1 X146.145 Y105.508 E0.03365
G1 X146.301 Y106.227 E0.03716
G1 X146.306 Y118.398 E0.61435
G1 X146.247 Y118.792 E0.02011
G1 X146.013 Y119.413 E0.03353
G1 X145.761 Y119.819 E0.02409
G1 X144.882 Y120.698 E0.06276
G1 X144.529 Y120.926 E0.02121
G1 X144.083 Y121.119 E0.02454
G1 X144.074 Y123.196 E0.10485
G1 X143.962 Y123.739 E0.02798
G1 X143.658 Y124.457 E0.03938
G1 X143.291 Y124.975 E0.03204
G1 X142.645 Y125.604 E0.04549
G1 X142.145 Y125.931 E0.03016
G1 X141.543 Y126.180 E0.03290
G1 X140.905 Y126.308 E0.03284
G1 X139.847 Y126.314 E0.05339
G1 X139.628 Y126.286 E0.01114
G1 X139.414 Y126.314 E0.01092
G1 X138.886 Y126.314 E0.02663
G1 X138.601 Y126.962 E0.03575
G1 X138.297 Y127.409 E0.02728
G1 X137.506 Y128.182 E0.05582
G1 X137.001 Y128.488 E0.02980
G1 X136.384 Y128.727 E0.03341
G1 X135.765 Y128.832 E0.03170
G1 X133.772 Y128.832 E0.10058
G1 X133.558 Y128.804 E0.01092
G1 X133.343 Y128.832 E0.01092
