; generated by PrusaSlicer 2.1.0+win64 on 2020-07-20 at 09:50:15 UTC

; 

; external perimeters extrusion width = 0.45mm
; perimeters extrusion width = 0.45mm
; infill extrusion width = 0.45mm
; solid infill extrusion width = 0.45mm
; top infill extrusion width = 0.40mm
; first layer extrusion width = 0.42mm

M73 P0 R108
M73 Q0 S108
M201 X1000 Y1000 Z1000 E5000 ; sets maximum accelerations, mm/sec^2
M203 X200 Y200 Z12 E120 ; sets maximum feedrates, mm/sec
M204 P1250 R1250 T1250 ; sets acceleration (P, T) and retract acceleration (R), mm/sec^2
M205 X8.00 Y8.00 Z0.40 E1.50 ; sets the jerk limits, mm/sec
M205 S0 T0 ; sets the minimum extruding and travel feed rate, mm/sec
M107
M862.3 P "MK3SMMU2S" ; printer model check
M862.1 P0.4 ; nozzle diameter check
M115 U3.8.1 ; tell printer latest fw version
G90 ; use absolute coordinates
M83 ; extruder relative mode
M104 S240 ; set extruder temp
M140 S50 ; set bed temp
Tx
M190 S50 ; wait for bed temp
M109 S240 ; wait for extruder temp
G28 W ; home all without mesh bed level
G80 ; mesh bed leveling

G21 ; set units to millimeters

;go outside print area
G1 Y-3.0 F1000.0
G1 Z0.4 F1000.0
; select extruder
Tc
; purge line
G1 X55.0 F2000.0
G1 Z0.3 F1000.0
G92 E0.0
G1 X240.0 E25.0 F2200.0
M73 Q0 S108
M73 P0 R108
G1 Y-2.0 F1000.0
G1 X55.0 E25 F1400.0
G1 Z0.20 F1000.0
G1 X5.0 E4.0 F1000.0

M221 S95
G92 E0.0
G21 ; set units to millimeters
G90 ; use absolute coordinates
M83 ; use relative distances for extrusion
M900 K0
;BEFORE_LAYER_CHANGE
G92 E0.0
;0.2


G1 Z0.200 F10800.000
;AFTER_LAYER_CHANGE
;0.2
G1 X49.295 Y73.447
M204 S1000
G1 F954.706
G1 X51.303 Y72.455 E0.08425
G1 X53.601 Y71.702 E0.09098
G1 X62.438 Y70.183 E0.33738
G1 X144.180 Y66.714 E3.07834
G1 X186.325 Y68.063 E1.58652
G1 X194.127 Y69.360 E0.29756
G1 X195.563 Y69.697 E0.05552
G1 X197.031 Y70.179 E0.05815
G1 X198.810 Y70.974 E0.07330
G1 X199.557 Y71.429 E0.03290
G1 X200.045 Y72.017 E0.02873
G1 X200.255 Y72.525 E0.02071
G1 X200.332 Y73.074 E0.02085
G1 X200.537 Y111.066 E1.42950
G1 X200.295 Y113.327 E0.08555
G1 X199.792 Y116.147 E0.10777
G1 X198.842 Y119.651 E0.13659
G1 X197.608 Y122.935 E0.13200
G1 X196.350 Y125.561 E0.10956
G1 X194.565 Y128.580 E0.13197
G1 X192.439 Y131.514 E0.13630
G1 X190.527 Y133.709 E0.10952
G1 X188.003 Y136.147 E0.13206
G1 X185.150 Y138.415 E0.13714
G1 X184.265 Y138.992 E0.03975
G1 X183.440 Y139.182 E0.03184
G1 X62.790 Y142.218 E4.54091
G1 X62.093 Y142.069 E0.02683
G1 X61.361 Y141.657 E0.03161
G1 X59.804 Y140.527 E0.07238
G1 X58.647 Y139.492 E0.05839
G1 X57.643 Y138.422 E0.05521
G1 X52.624 Y132.324 E0.29718
G1 X49.448 Y126.793 E0.23995
G1 X46.564 Y119.028 E0.31166
G1 X45.991 Y116.644 E0.09227
G1 X45.780 Y114.667 E0.07479
G1 X45.770 Y114.017 E0.02449
G1 X48.390 Y75.039 E1.46985
G1 X48.481 Y74.574 E0.01784
G1 X48.669 Y74.142 E0.01770
G1 X48.945 Y73.761 E0.01770
G1 X49.251 Y73.487 E0.01545
G1 X98.830 Y132.028 F10800.000
G1 F954.706
G1 X100.812 Y132.528 E0.07691
G1 X101.517 Y132.665 E0.02703
G1 X102.227 Y132.755 E0.02692
G1 X102.942 Y132.801 E0.02698
G1 X103.658 Y132.801 E0.02691
G1 X104.373 Y132.755 E0.02698
G1 X105.080 Y132.666 E0.02680
G1 X106.003 Y132.476 E0.03546
G1 X107.780 Y132.014 E0.06906
G1 X106.584 Y133.792 E0.08059
G1 X106.118 Y134.412 E0.02919
G1 X105.518 Y135.116 E0.03480
G1 X104.856 Y135.790 E0.03554
G1 X104.230 Y136.349 E0.03161
G1 X103.300 Y137.084 E0.04459
G1 X102.370 Y136.349 E0.04459
G1 X101.744 Y135.790 E0.03161
G1 X101.082 Y135.116 E0.03554
G1 X100.482 Y134.412 E0.03480
G1 X100.016 Y133.792 E0.02919
G1 X98.863 Y132.078 E0.07771
G1 X99.692 Y132.635 F10800.000
G1 F954.706
G1 X100.730 Y132.896 E0.04026
G1 X101.457 Y133.038 E0.02789
G1 X102.191 Y133.131 E0.02783
G1 X102.930 Y133.178 E0.02788
G1 X103.670 Y133.178 E0.02781
G1 X104.409 Y133.131 E0.02788
G1 X105.142 Y133.038 E0.02779
G1 X106.089 Y132.844 E0.03637
G1 X106.911 Y132.630 E0.03198
G1 X106.277 Y133.573 E0.04278
G1 X105.823 Y134.176 E0.02839
G1 X105.240 Y134.861 E0.03387
G1 X104.596 Y135.517 E0.03457
G1 X103.987 Y136.061 E0.03072
G1 X103.300 Y136.604 E0.03294
G1 X102.613 Y136.061 E0.03294
G1 X102.004 Y135.517 E0.03072
G1 X101.360 Y134.861 E0.03457
G1 X100.777 Y134.176 E0.03386
G1 X100.323 Y133.573 E0.02839
G1 X99.725 Y132.684 E0.04029
G1 X99.676 Y132.235 F10800.000
G1 X109.102 Y125.792
G1 F954.706
G1 X108.987 Y127.378 E0.05985
G1 X108.893 Y128.092 E0.02710
G1 X108.720 Y129.008 E0.03507
G1 X108.479 Y129.907 E0.03501
G1 X108.254 Y130.592 E0.02710
G1 X107.863 Y131.581 E0.04003
G1 X106.941 Y131.938 E0.03720
G1 X106.325 Y132.133 E0.02432
G1 X105.491 Y132.337 E0.03229
G1 X104.749 Y132.461 E0.02832
G1 X104.104 Y132.528 E0.02438
G1 X103.247 Y132.557 E0.03227
G1 X102.494 Y132.528 E0.02833
G1 X101.851 Y132.461 E0.02433
G1 X101.109 Y132.337 E0.02831
G1 X100.275 Y132.133 E0.03229
G1 X99.659 Y131.938 E0.02433
G1 X98.739 Y131.581 E0.03715
G1 X98.346 Y130.592 E0.04003
G1 X98.121 Y129.907 E0.02711
G1 X97.880 Y129.008 E0.03501
G1 X97.707 Y128.092 E0.03507
G1 X97.613 Y127.378 E0.02710
G1 X97.498 Y125.795 E0.05972
G1 X99.043 Y126.321 E0.06139
G1 X99.864 Y126.549 E0.03209
G1 X100.696 Y126.728 E0.03201
G1 X101.663 Y126.871 E0.03678
G1 X102.387 Y126.937 E0.02737
G1 X103.238 Y126.966 E0.03204
G1 X104.213 Y126.937 E0.03671
G1 X105.062 Y126.857 E0.03206
G1 X105.780 Y126.749 E0.02735
G1 X106.736 Y126.549 E0.03673
G1 X107.684 Y126.280 E0.03709
G1 X109.046 Y125.811 E0.05416
G1 X108.685 Y126.334 F10800.000
G1 F954.706
G1 X108.611 Y127.340 E0.03794
G1 X108.520 Y128.033 E0.02629
G1 X108.352 Y128.924 E0.03414
G1 X108.118 Y129.800 E0.03409
G1 X107.900 Y130.463 E0.02628
G1 X107.573 Y131.289 E0.03341
G1 X106.816 Y131.582 E0.03055
G1 X106.223 Y131.770 E0.02340
G1 X105.415 Y131.967 E0.03129
G1 X104.698 Y132.087 E0.02735
G1 X104.078 Y132.151 E0.02345
G1 X103.248 Y132.179 E0.03126
G1 X102.521 Y132.151 E0.02736
G1 X101.902 Y132.087 E0.02343
G1 X101.185 Y131.967 E0.02735
G1 X100.377 Y131.770 E0.03129
G1 X99.784 Y131.582 E0.02340
G1 X99.028 Y131.289 E0.03051
G1 X98.700 Y130.463 E0.03342
G1 X98.482 Y129.800 E0.02628
G1 X98.248 Y128.924 E0.03409
G1 X98.080 Y128.033 E0.03414
G1 X97.989 Y127.340 E0.02629
G1 X97.915 Y126.336 E0.03790
G1 X98.931 Y126.681 E0.04037
G1 X99.774 Y126.915 E0.03291
G1 X100.628 Y127.099 E0.03289
G1 X101.618 Y127.246 E0.03764
G1 X102.364 Y127.313 E0.02817
G1 X103.237 Y127.343 E0.03289
G1 X104.236 Y127.313 E0.03761
G1 X105.108 Y127.232 E0.03292
G1 X105.847 Y127.120 E0.02815
G1 X106.826 Y126.915 E0.03763
G1 X107.797 Y126.640 E0.03798
G1 X108.628 Y126.354 E0.03305
G1 X109.084 Y126.313 F10800.000
G1 X103.300 Y114.928
G1 F954.706
G1 X104.224 Y115.658 E0.04433
G1 X104.857 Y116.223 E0.03189
G1 X105.453 Y116.826 E0.03191
G1 X106.010 Y117.467 E0.03196
G1 X106.595 Y118.235 E0.03633
G1 X107.062 Y118.945 E0.03196
G1 X107.483 Y119.682 E0.03194
G1 X107.857 Y120.444 E0.03193
G1 X108.182 Y121.227 E0.03192
G1 X108.458 Y122.029 E0.03191
G1 X108.682 Y122.848 E0.03193
G1 X108.854 Y123.679 E0.03191
G1 X109.025 Y124.842 E0.04425
G1 X107.930 Y125.278 E0.04434
G1 X107.124 Y125.543 E0.03192
G1 X106.189 Y125.784 E0.03633
G1 X105.470 Y125.921 E0.02756
G1 X104.631 Y126.031 E0.03184
G1 X103.785 Y126.089 E0.03190
G1 X102.934 Y126.092 E0.03201
G1 X101.971 Y126.031 E0.03633
G1 X101.130 Y125.921 E0.03189
G1 X100.411 Y125.784 E0.02756
G1 X99.476 Y125.543 E0.03633
G1 X98.670 Y125.278 E0.03192
G1 X97.575 Y124.842 E0.04433
G1 X97.746 Y123.679 E0.04425
G1 X97.918 Y122.847 E0.03197
G1 X98.177 Y121.917 E0.03631
G1 X98.419 Y121.226 E0.02753
G1 X98.744 Y120.443 E0.03193
G1 X99.173 Y119.577 E0.03635
G1 X99.601 Y118.844 E0.03194
G1 X100.006 Y118.234 E0.02754
G1 X100.590 Y117.467 E0.03627
G1 X101.147 Y116.827 E0.03192
G1 X101.659 Y116.305 E0.02752
G1 X102.374 Y115.659 E0.03627
G1 X103.253 Y114.965 E0.04212
G1 X103.300 Y115.408 F10800.000
G1 F954.706
G1 X103.982 Y115.947 E0.03269
G1 X104.597 Y116.496 E0.03102
G1 X105.176 Y117.083 E0.03102
G1 X105.718 Y117.705 E0.03105
G1 X106.287 Y118.453 E0.03537
G1 X106.740 Y119.142 E0.03103
G1 X107.150 Y119.859 E0.03105
G1 X107.513 Y120.599 E0.03103
G1 X107.829 Y121.361 E0.03104
G1 X108.098 Y122.141 E0.03102
G1 X108.315 Y122.936 E0.03102
G1 X108.482 Y123.744 E0.03105
G1 X108.608 Y124.602 E0.03263
G1 X107.801 Y124.924 E0.03269
G1 X107.018 Y125.181 E0.03102
G1 X106.107 Y125.416 E0.03540
G1 X105.410 Y125.549 E0.02669
G1 X104.594 Y125.656 E0.03099
G1 X103.771 Y125.712 E0.03101
G1 X102.945 Y125.715 E0.03108
G1 X102.007 Y125.656 E0.03537
G1 X101.190 Y125.549 E0.03100
G1 X100.493 Y125.416 E0.02669
G1 X99.582 Y125.181 E0.03540
G1 X98.799 Y124.924 E0.03102
G1 X97.992 Y124.602 E0.03269
G1 X98.118 Y123.744 E0.03263
G1 X98.285 Y122.936 E0.03107
G1 X98.537 Y122.030 E0.03537
G1 X98.771 Y121.361 E0.02667
G1 X99.087 Y120.599 E0.03104
G1 X99.505 Y119.756 E0.03540
G1 X99.921 Y119.043 E0.03105
G1 X100.313 Y118.453 E0.02667
G1 X100.882 Y117.705 E0.03534
G1 X101.424 Y117.083 E0.03103
G1 X101.920 Y116.577 E0.02667
G1 X102.618 Y115.947 E0.03537
G1 X103.253 Y115.446 E0.03045
G1 X103.568 Y115.112 F10800.000
G1 X102.406 Y114.479
G1 F954.706
G1 X101.287 Y115.460 E0.05597
G1 X100.678 Y116.057 E0.03209
G1 X100.107 Y116.687 E0.03199
G1 X99.501 Y117.453 E0.03676
G1 X99.082 Y118.048 E0.02739
G1 X98.631 Y118.770 E0.03203
G1 X98.168 Y119.630 E0.03675
G1 X97.813 Y120.402 E0.03198
G1 X97.504 Y121.197 E0.03207
G1 X97.242 Y122.008 E0.03207
G1 X97.030 Y122.833 E0.03206
G1 X96.713 Y124.434 E0.06141
G1 X95.398 Y123.543 E0.05975
G1 X94.828 Y123.104 E0.02708
G1 X94.122 Y122.497 E0.03503
G1 X93.462 Y121.839 E0.03507
G1 X92.983 Y121.302 E0.02708
G1 X92.322 Y120.468 E0.04003
G1 X92.473 Y119.492 E0.03716
G1 X92.613 Y118.860 E0.02436
G1 X92.852 Y118.035 E0.03231
G1 X93.117 Y117.329 E0.02836
G1 X93.428 Y116.644 E0.02831
G1 X93.731 Y116.074 E0.02432
G1 X94.185 Y115.347 E0.03222
G1 X94.564 Y114.822 E0.02438
G1 X95.042 Y114.243 E0.02826
G1 X95.560 Y113.694 E0.02840
G1 X96.194 Y113.117 E0.03226
G1 X96.886 Y112.565 E0.03327
G1 X97.937 Y112.722 E0.03998
G1 X98.745 Y112.891 E0.03105
G1 X99.542 Y113.111 E0.03113
G1 X100.419 Y113.417 E0.03495
G1 X101.085 Y113.692 E0.02712
G1 X102.512 Y114.386 E0.05969
G1 X102.451 Y114.440 E0.00305
G1 X101.837 Y114.477 F10800.000
G1 F954.706
G1 X101.031 Y115.183 E0.04031
G1 X100.406 Y115.796 E0.03291
G1 X99.820 Y116.443 E0.03288
G1 X99.198 Y117.227 E0.03763
G1 X98.767 Y117.840 E0.02818
G1 X98.305 Y118.581 E0.03287
G1 X97.830 Y119.462 E0.03765
G1 X97.465 Y120.255 E0.03286
G1 X97.149 Y121.071 E0.03291
G1 X96.880 Y121.903 E0.03290
G1 X96.662 Y122.749 E0.03289
G1 X96.453 Y123.803 E0.04040
G1 X95.619 Y123.237 E0.03792
G1 X95.066 Y122.811 E0.02627
G1 X94.378 Y122.220 E0.03412
G1 X93.736 Y121.579 E0.03413
G1 X93.272 Y121.059 E0.02626
G1 X92.719 Y120.363 E0.03342
G1 X92.843 Y119.562 E0.03050
G1 X92.978 Y118.953 E0.02344
G1 X93.210 Y118.154 E0.03131
G1 X93.465 Y117.474 E0.02734
G1 X93.766 Y116.811 E0.02738
G1 X94.058 Y116.263 E0.02339
G1 X94.498 Y115.558 E0.03125
G1 X94.863 Y115.053 E0.02345
G1 X95.325 Y114.492 E0.02733
G1 X95.824 Y113.963 E0.02739
G1 X96.439 Y113.404 E0.03126
G1 X96.993 Y112.963 E0.02664
G1 X97.871 Y113.093 E0.03339
G1 X98.656 Y113.257 E0.03018
G1 X99.430 Y113.471 E0.03022
G1 X100.285 Y113.770 E0.03409
G1 X100.931 Y114.036 E0.02628
G1 X101.783 Y114.451 E0.03565
G1 X102.140 Y114.738 F10800.000
G1 X96.438 Y112.434
G1 F954.706
G1 X95.026 Y113.888 E0.07622
G1 X94.556 Y114.431 E0.02704
G1 X94.121 Y115.001 E0.02696
G1 X93.725 Y115.596 E0.02690
G1 X93.367 Y116.217 E0.02698
G1 X93.050 Y116.857 E0.02689
G1 X92.746 Y117.589 E0.02980
G1 X92.538 Y118.196 E0.02417
G1 X91.984 Y120.167 E0.07703
G1 X91.045 Y118.255 E0.08015
G1 X90.742 Y117.541 E0.02917
G1 X90.432 Y116.671 E0.03477
G1 X90.180 Y115.761 E0.03553
G1 X90.026 Y115.039 E0.02775
G1 X89.834 Y113.764 E0.04851
G1 X90.938 Y113.328 E0.04465
G1 X91.735 Y113.064 E0.03159
G1 X92.549 Y112.853 E0.03163
G1 X93.478 Y112.671 E0.03562
G1 X94.580 Y112.547 E0.04172
G1 X96.378 Y112.438 E0.06779
G1 X95.490 Y112.870 F10800.000
G1 F954.706
G1 X94.749 Y113.633 E0.04002
G1 X94.263 Y114.193 E0.02789
G1 X93.814 Y114.782 E0.02786
G1 X93.405 Y115.397 E0.02780
G1 X93.034 Y116.039 E0.02788
G1 X92.706 Y116.701 E0.02782
G1 X92.394 Y117.455 E0.03071
G1 X92.178 Y118.084 E0.02501
G1 X91.888 Y119.116 E0.04033
G1 X91.388 Y118.098 E0.04266
G1 X91.093 Y117.404 E0.02836
G1 X90.792 Y116.557 E0.03384
G1 X90.546 Y115.671 E0.03459
G1 X90.398 Y114.972 E0.02690
G1 X90.252 Y114.005 E0.03680
G1 X91.067 Y113.683 E0.03296
G1 X91.842 Y113.426 E0.03073
G1 X92.632 Y113.220 E0.03073
G1 X93.535 Y113.044 E0.03460
G1 X94.612 Y112.923 E0.04078
G1 X95.430 Y112.873 E0.03082
G1 X95.844 Y113.056 F10800.000
G1 X104.088 Y114.387
G1 F954.706
G1 X105.515 Y113.692 E0.05972
G1 X106.181 Y113.417 E0.02712
G1 X107.058 Y113.111 E0.03495
G1 X107.858 Y112.890 E0.03122
G1 X108.768 Y112.705 E0.03497
G1 X109.716 Y112.566 E0.03604
G1 X110.487 Y113.185 E0.03722
G1 X111.041 Y113.695 E0.02832
G1 X111.558 Y114.243 E0.02834
G1 X112.036 Y114.822 E0.02826
G1 X112.414 Y115.346 E0.02432
G1 X112.815 Y115.981 E0.02825
G1 X113.173 Y116.644 E0.02836
G1 X113.523 Y117.428 E0.03230
G1 X113.748 Y118.035 E0.02434
G1 X113.962 Y118.757 E0.02832
G1 X114.127 Y119.491 E0.02832
G1 X114.278 Y120.468 E0.03720
G1 X113.617 Y121.302 E0.04003
G1 X113.138 Y121.839 E0.02708
G1 X112.479 Y122.497 E0.03506
G1 X111.772 Y123.104 E0.03506
G1 X111.202 Y123.543 E0.02708
G1 X109.887 Y124.434 E0.05975
G1 X109.570 Y122.833 E0.06142
G1 X109.358 Y122.008 E0.03204
G1 X109.096 Y121.197 E0.03206
G1 X108.787 Y120.402 E0.03209
G1 X108.433 Y119.630 E0.03196
G1 X107.969 Y118.771 E0.03675
G1 X107.518 Y118.048 E0.03204
G1 X107.099 Y117.453 E0.02739
G1 X106.493 Y116.687 E0.03676
G1 X105.922 Y116.057 E0.03199
G1 X105.314 Y115.460 E0.03206
G1 X104.133 Y114.426 E0.05905
G1 X104.763 Y114.477 F10800.000
G1 F954.706
G1 X105.669 Y114.036 E0.03791
G1 X106.315 Y113.770 E0.02628
G1 X107.170 Y113.471 E0.03409
G1 X107.946 Y113.257 E0.03027
G1 X108.833 Y113.076 E0.03408
G1 X109.608 Y112.963 E0.02946
G1 X110.241 Y113.471 E0.03056
M73 Q1 S107
G1 X110.776 Y113.963 E0.02735
G1 X111.275 Y114.492 E0.02736
G1 X111.737 Y115.053 E0.02733
G1 X112.102 Y115.558 E0.02343
G1 X112.489 Y116.172 E0.02732
G1 X112.835 Y116.811 E0.02735
G1 X113.174 Y117.571 E0.03130
M73 P1 R107
G1 X113.390 Y118.154 E0.02340
G1 X113.597 Y118.852 E0.02738
G1 X113.756 Y119.561 E0.02736
G1 X113.881 Y120.363 E0.03052
G1 X113.329 Y121.059 E0.03342
G1 X112.864 Y121.579 E0.02626
G1 X112.223 Y122.220 E0.03412
G1 X111.534 Y122.811 E0.03414
G1 X110.981 Y123.237 E0.02627
G1 X110.147 Y123.803 E0.03792
G1 X109.938 Y122.749 E0.04040
G1 X109.721 Y121.903 E0.03288
G1 X109.451 Y121.071 E0.03291
G1 X109.135 Y120.255 E0.03292
G1 X108.771 Y119.462 E0.03284
G1 X108.295 Y118.581 E0.03766
G1 X107.833 Y117.840 E0.03288
G1 X107.402 Y117.227 E0.02818
G1 X106.780 Y116.443 E0.03763
G1 X106.194 Y115.795 E0.03288
G1 X105.570 Y115.183 E0.03288
G1 X104.808 Y114.517 E0.03808
G1 X104.545 Y114.142 F10800.000
G1 X110.134 Y112.421
G1 F954.706
G1 X112.271 Y112.567 E0.08057
G1 X113.042 Y112.660 E0.02922
G1 X113.950 Y112.828 E0.03475
G1 X114.864 Y113.064 E0.03554
G1 X115.662 Y113.328 E0.03161
G1 X116.766 Y113.764 E0.04465
G1 X116.574 Y115.039 E0.04851
G1 X116.420 Y115.761 E0.02775
G1 X116.168 Y116.671 E0.03552
G1 X115.859 Y117.541 E0.03477
G1 X115.555 Y118.255 E0.02920
G1 X114.616 Y120.167 E0.08014
G1 X114.063 Y118.197 E0.07700
G1 X113.828 Y117.518 E0.02702
G1 X113.551 Y116.858 E0.02694
G1 X113.233 Y116.217 E0.02694
G1 X112.875 Y115.596 E0.02697
G1 X112.479 Y115.001 E0.02690
G1 X112.046 Y114.433 E0.02685
G1 X111.421 Y113.728 E0.03547
G1 X110.176 Y112.464 E0.06673
G1 X111.100 Y112.865 F10800.000
G1 F954.706
G1 X112.235 Y112.942 E0.04279
G1 X112.985 Y113.033 E0.02840
G1 X113.868 Y113.196 E0.03381
G1 X114.758 Y113.426 E0.03457
G1 X115.533 Y113.683 E0.03073
G1 X116.348 Y114.005 E0.03296
G1 X116.202 Y114.972 E0.03680
G1 X116.054 Y115.671 E0.02690
G1 X115.808 Y116.557 E0.03459
G1 X115.507 Y117.404 E0.03383
G1 X115.212 Y118.098 E0.02838
G1 X114.712 Y119.116 E0.04265
G1 X114.423 Y118.084 E0.04032
G1 X114.180 Y117.384 E0.02789
G1 X113.894 Y116.701 E0.02783
G1 X113.566 Y116.039 E0.02783
G1 X113.196 Y115.397 E0.02788
