; generated by PrusaSlicer 2.1.0+win64 on 2020-07-04 at 09:37:39 UTC

; 

; external perimeters extrusion width = 0.45mm
; perimeters extrusion width = 0.45mm
; infill extrusion width = 0.45mm
; solid infill extrusion width = 0.45mm
; top infill extrusion width = 0.40mm
; first layer extrusion width = 0.42mm

M73 P0 R63
M73 Q0 S63
M201 X1000 Y1000 Z1000 E5000 ; sets maximum accelerations, mm/sec^2
M203 X200 Y200 Z12 E120 ; sets maximum feedrates, mm/sec
M204 P1250 R1250 T1250 ; sets acceleration (P, T) and retract acceleration (R), mm/sec^2
M205 X8.00 Y8.00 Z0.40 E1.50 ; sets the jerk limits, mm/sec
M205 S0 T0 ; sets the minimum extruding and travel feed rate, mm/sec
M107
M862.3 P "MK3SMMU2S" ; printer model check
M862.1 P0.4 ; nozzle diameter check
M115 U3.8.1 ; tell printer latest fw version
G90 ; use absolute coordinates
M83 ; extruder relative mode
M104 S215 ; set extruder temp
M140 S60 ; set bed temp
Tx
M190 S60 ; wait for bed temp
M109 S215 ; wait for extruder temp
G28 W ; home all without mesh bed level
G80 ; mesh bed leveling

G21 ; set units to millimeters

;go outside print area
G1 Y-3.0 F1000.0
G1 Z0.4 F1000.0
; select extruder
Tc
; purge line
G1 X55.0 F2000.0
G1 Z0.3 F1000.0
G92 E0.0
G1 X240.0 E25.0 F2200.0
M73 Q0 S63
M73 P0 R63
G1 Y-2.0 F1000.0
G1 X55.0 E25 F1400.0
G1 Z0.20 F1000.0
G1 X5.0 E4.0 F1000.0

M221 S100
G92 E0.0
G21 ; set units to millimeters
G90 ; use absolute coordinates
M83 ; use relative distances for extrusion
M900 K30 ; Filament gcode
;BEFORE_LAYER_CHANGE
G92 E0.0
;0.2


G1 E-0.80000 F2100.00000
G1 Z0.600 F10800.000
;AFTER_LAYER_CHANGE
;0.2
G1 X165.061 Y95.002
G1 Z0.200
G1 E0.80000 F2100.00000
M204 S500
G1 F1200
G1 X165.229 Y95.835 E0.02664
G1 X165.013 Y97.893 E0.06488
G1 X164.606 Y100.311 E0.07688
G1 X163.793 Y103.558 E0.10495
G1 X163.021 Y105.854 E0.07596
G1 X162.328 Y107.592 E0.05866
G1 X161.709 Y108.952 E0.04685
G1 X160.592 Y111.093 E0.07571
G1 X158.849 Y113.905 E0.10373
G1 X156.826 Y116.584 E0.10525
G1 X154.197 Y119.446 E0.12186
G1 X151.706 Y121.674 E0.10477
G1 X149.769 Y123.151 E0.07636
G1 X148.978 Y123.638 E0.02914
G1 X148.106 Y123.794 E0.02777
G1 X109.152 Y122.556 E1.22200
G1 X108.523 Y122.324 E0.02100
G1 X107.387 Y121.576 E0.04266
G1 X106.107 Y120.555 E0.05134
G1 X105.184 Y119.679 E0.03990
G1 X104.090 Y118.450 E0.05160
G1 X99.404 Y112.700 E0.23257
G1 X96.298 Y107.302 E0.19529
G1 X93.742 Y100.527 E0.22701
G1 X93.231 Y98.995 E0.05066
G1 X92.924 Y97.722 E0.04105
G1 X92.679 Y96.092 E0.05166
G1 X92.612 Y94.552 E0.04834
G1 X92.717 Y94.075 E0.01532
G1 X92.928 Y93.630 E0.01544
G1 X93.230 Y93.245 E0.01532
G1 X93.612 Y92.936 E0.01544
G1 X95.750 Y91.931 E0.07405
G1 X97.673 Y91.321 E0.06326
G1 X106.361 Y89.830 E0.27637
G1 X112.596 Y89.819 E0.19551
G1 X149.586 Y90.355 E1.15992
G1 X152.492 Y90.581 E0.09138
G1 X155.357 Y91.031 E0.09094
G1 X158.162 Y91.700 E0.09041
G1 X160.891 Y92.579 E0.08991
G1 X163.961 Y93.856 E0.10423
G1 X164.589 Y94.295 E0.02405
G1 X165.028 Y94.952 E0.02476
M204 S1000
G1 F8640
G1 X165.229 Y95.835 E-0.20910
G1 X165.013 Y97.893 E-0.47778
G1 X164.961 Y98.205 E-0.07312
G1 E-0.04000 F2100.00000
G1 Z0.800 F10800.000
G1 X114.065 Y113.801
G1 Z0.200
G1 E0.80000 F2100.00000
M204 S500
G1 F1200
G1 X112.870 Y115.578 E0.06716
G1 X112.404 Y116.198 E0.02433
G1 X111.804 Y116.902 E0.02900
G1 X111.142 Y117.576 E0.02962
G1 X110.516 Y118.136 E0.02634
G1 X109.586 Y118.871 E0.03716
G1 X108.656 Y118.136 E0.03716
G1 X108.030 Y117.576 E0.02634
G1 X107.368 Y116.902 E0.02962
G1 X106.768 Y116.198 E0.02900
G1 X106.302 Y115.578 E0.02433
G1 X105.116 Y113.814 E0.06664
G1 X107.098 Y114.314 E0.06409
G1 X107.803 Y114.451 E0.02253
G1 X108.513 Y114.542 E0.02243
G1 X109.228 Y114.587 E0.02248
G1 X109.944 Y114.587 E0.02242
G1 X110.659 Y114.542 E0.02248
G1 X111.366 Y114.452 E0.02233
G1 X112.289 Y114.262 E0.02955
G1 X114.007 Y113.816 E0.05566
M204 S1000
G1 F8640
G1 X112.870 Y115.578 E-0.48428
G1 X112.404 Y116.198 E-0.17916
G1 X112.133 Y116.517 E-0.09656
G1 E-0.04000 F2100.00000
G1 Z0.800 F10800.000
G1 X113.197 Y114.416
G1 Z0.200
G1 E0.80000 F2100.00000
M204 S500
G1 F1200
G1 X112.563 Y115.359 E0.03565
G1 X112.109 Y115.962 E0.02366
G1 X111.526 Y116.648 E0.02822
G1 X110.882 Y117.303 E0.02881
G1 X110.273 Y117.847 E0.02560
G1 X109.586 Y118.390 E0.02745
G1 X108.899 Y117.847 E0.02745
G1 X108.290 Y117.303 E0.02560
G1 X107.646 Y116.648 E0.02881
G1 X107.063 Y115.962 E0.02822
G1 X106.609 Y115.359 E0.02366
G1 X105.978 Y114.421 E0.03546
G1 X107.016 Y114.683 E0.03355
G1 X107.743 Y114.824 E0.02324
G1 X108.477 Y114.917 E0.02319
G1 X109.216 Y114.964 E0.02323
G1 X109.955 Y114.964 E0.02317
G1 X110.695 Y114.917 E0.02323
G1 X111.428 Y114.824 E0.02316
G1 X112.375 Y114.630 E0.03031
G1 X113.139 Y114.431 E0.02477
M204 S1000
G1 X113.577 Y114.541 F10800.000
G1 F8640
G1 X112.563 Y115.359 E-0.25230
G1 X112.109 Y115.962 E-0.17423
G1 X111.526 Y116.648 E-0.20783
G1 X111.144 Y117.036 E-0.12565
G1 E-0.04000 F2100.00000
G1 Z0.800 F10800.000
G1 X115.388 Y107.578
G1 Z0.200
G1 E0.80000 F2100.00000
M204 S500
G1 F1200
G1 X115.272 Y109.165 E0.04987
G1 X115.179 Y109.879 E0.02258
G1 X115.005 Y110.795 E0.02922
G1 X114.765 Y111.694 E0.02918
G1 X114.540 Y112.378 E0.02259
G1 X114.149 Y113.367 E0.03336
G1 X113.227 Y113.724 E0.03100
G1 X112.611 Y113.920 E0.02027
G1 X111.777 Y114.123 E0.02691
G1 X111.035 Y114.247 E0.02360
G1 X110.390 Y114.314 E0.02032
G1 X109.533 Y114.343 E0.02689
G1 X108.780 Y114.314 E0.02361
G1 X108.137 Y114.247 E0.02027
G1 X107.395 Y114.123 E0.02360
G1 X106.561 Y113.920 E0.02691
G1 X105.945 Y113.724 E0.02027
G1 X105.024 Y113.367 E0.03096
G1 X104.632 Y112.378 E0.03336
G1 X104.407 Y111.694 E0.02260
G1 X104.166 Y110.795 E0.02918
G1 X103.993 Y109.879 E0.02922
G1 X103.899 Y109.165 E0.02258
G1 X103.784 Y107.582 E0.04977
G1 X105.328 Y108.107 E0.05116
G1 X106.150 Y108.335 E0.02674
G1 X106.982 Y108.514 E0.02667
G1 X107.949 Y108.657 E0.03065
G1 X108.673 Y108.723 E0.02281
G1 X109.524 Y108.752 E0.02670
G1 X110.499 Y108.723 E0.03059
G1 X111.348 Y108.644 E0.02672
G1 X112.066 Y108.535 E0.02279
G1 X113.022 Y108.335 E0.03061
G1 X113.970 Y108.066 E0.03091
G1 X115.332 Y107.598 E0.04513
M204 S1000
G1 X114.971 Y108.121 F10800.000
M204 S500
G1 F1200
G1 X114.897 Y109.126 E0.03162
G1 X114.806 Y109.819 E0.02191
G1 X114.638 Y110.711 E0.02845
G1 X114.404 Y111.586 E0.02841
G1 X114.186 Y112.249 E0.02190
G1 X113.859 Y113.075 E0.02784
G1 X113.102 Y113.369 E0.02546
G1 X112.509 Y113.556 E0.01950
G1 X111.701 Y113.754 E0.02607
G1 X110.984 Y113.873 E0.02279
G1 X110.364 Y113.938 E0.01954
G1 X109.534 Y113.966 E0.02605
G1 X108.807 Y113.938 E0.02280
G1 X108.188 Y113.873 E0.01952
G1 X107.471 Y113.754 E0.02279
G1 X106.663 Y113.556 E0.02607
G1 X106.070 Y113.369 E0.01950
G1 X105.314 Y113.075 E0.02543
G1 X104.986 Y112.250 E0.02785
G1 X104.768 Y111.586 E0.02190
G1 X104.534 Y110.711 E0.02841
G1 X104.366 Y109.819 E0.02845
G1 X104.275 Y109.126 E0.02191
G1 X104.201 Y108.122 E0.03158
G1 X105.217 Y108.467 E0.03364
G1 X106.060 Y108.701 E0.02742
G1 X106.914 Y108.886 E0.02741
G1 X107.904 Y109.032 E0.03137
G1 X108.650 Y109.100 E0.02347
G1 X109.523 Y109.129 E0.02741
G1 X110.522 Y109.100 E0.03134
G1 X111.394 Y109.018 E0.02743
G1 X112.133 Y108.906 E0.02346
G1 X113.112 Y108.701 E0.03136
G1 X114.083 Y108.426 E0.03165
G1 X114.914 Y108.140 E0.02754
M204 S1000
G1 X115.370 Y108.100 F10800.000
G1 F8640
G1 X114.897 Y109.126 E-0.22775
G1 X114.806 Y109.819 E-0.16134
G1 X114.638 Y110.711 E-0.20951
G1 X114.457 Y111.386 E-0.16140
G1 E-0.04000 F2100.00000
G1 Z0.800 F10800.000
G1 X120.902 Y101.954
G1 Z0.200
G1 E0.80000 F2100.00000
M204 S500
G1 F1200
G1 X120.348 Y99.983 E0.06417
G1 X120.114 Y99.305 E0.02251
G1 X119.837 Y98.644 E0.02245
G1 X119.519 Y98.003 E0.02245
G1 X119.161 Y97.382 E0.02248
G1 X118.765 Y96.787 E0.02241
G1 X118.332 Y96.219 E0.02237
G1 X117.707 Y95.514 E0.02956
G1 X116.420 Y94.208 E0.05749
G1 X118.557 Y94.353 E0.06714
G1 X119.328 Y94.446 E0.02435
G1 X120.236 Y94.614 E0.02896
G1 X121.150 Y94.850 E0.02962
G1 X121.948 Y95.114 E0.02634
G1 X123.052 Y95.550 E0.03721
G1 X122.860 Y96.825 E0.04043
G1 X122.706 Y97.547 E0.02313
G1 X122.454 Y98.457 E0.02960
G1 X122.145 Y99.328 E0.02897
G1 X121.841 Y100.042 E0.02433
G1 X120.928 Y101.900 E0.06491
M204 S1000
G1 X120.998 Y100.902 F10800.000
M204 S500
G1 F1200
G1 X120.708 Y99.870 E0.03360
G1 X120.466 Y99.170 E0.02324
G1 X120.180 Y98.488 E0.02319
G1 X119.852 Y97.825 E0.02319
G1 X119.481 Y97.183 E0.02323
G1 X119.072 Y96.568 E0.02317
G1 X118.624 Y95.980 E0.02319
G1 X117.982 Y95.256 E0.03031
G1 X117.386 Y94.651 E0.02663
G1 X118.521 Y94.728 E0.03566
G1 X119.271 Y94.819 E0.02367
G1 X120.154 Y94.983 E0.02818
G1 X121.044 Y95.212 E0.02881
G1 X121.819 Y95.469 E0.02561
G1 X122.634 Y95.791 E0.02747
G1 X122.488 Y96.758 E0.03067
G1 X122.339 Y97.457 E0.02242
G1 X122.094 Y98.343 E0.02883
G1 X121.793 Y99.191 E0.02819
G1 X121.498 Y99.885 E0.02365
G1 X121.025 Y100.848 E0.03366
M204 S1000
G1 X120.660 Y101.115 F10800.000
G1 F8640
G1 X120.708 Y99.870 E-0.23729
G1 X120.466 Y99.170 E-0.17115
G1 X120.180 Y98.488 E-0.17081
G1 X119.852 Y97.825 E-0.17081
G1 X119.830 Y97.788 E-0.00994
G1 E-0.04000 F2100.00000
G1 Z0.800 F10800.000
G1 X120.564 Y102.254
G1 Z0.200
G1 E0.80000 F2100.00000
M204 S500
G1 F1200
G1 X119.903 Y103.088 E0.03336
G1 X119.424 Y103.625 E0.02256
G1 X118.765 Y104.283 E0.02921
G1 X118.058 Y104.890 E0.02922
G1 X117.488 Y105.329 E0.02256
G1 X116.173 Y106.221 E0.04979
G1 X115.856 Y104.619 E0.05118
G1 X115.644 Y103.794 E0.02670
G1 X115.382 Y102.984 E0.02672
G1 X115.073 Y102.188 E0.02674
G1 X114.719 Y101.417 E0.02663
G1 X114.255 Y100.557 E0.03063
G1 X113.804 Y99.835 E0.02670
G1 X113.385 Y99.239 E0.02283
G1 X112.779 Y98.474 E0.03063
G1 X112.208 Y97.843 E0.02666
G1 X111.600 Y97.246 E0.02672
G1 X110.373 Y96.173 E0.05109
G1 X111.801 Y95.478 E0.04977
G1 X112.467 Y95.203 E0.02260
G1 X113.344 Y94.898 E0.02913
G1 X114.144 Y94.676 E0.02602
G1 X115.054 Y94.491 E0.02914
G1 X116.002 Y94.352 E0.03003
G1 X116.773 Y94.971 E0.03102
G1 X117.327 Y95.481 E0.02360
G1 X117.844 Y96.029 E0.02362
G1 X118.322 Y96.609 E0.02355
G1 X118.700 Y97.133 E0.02027
G1 X119.101 Y97.768 E0.02354
G1 X119.459 Y98.431 E0.02363
G1 X119.809 Y99.215 E0.02692
G1 X120.034 Y99.821 E0.02028
G1 X120.248 Y100.543 E0.02360
G1 X120.413 Y101.277 E0.02360
G1 X120.555 Y102.195 E0.02912
M204 S1000
G1 X120.167 Y102.149 F10800.000
M204 S500
G1 F1200
G1 X119.615 Y102.845 E0.02785
G1 X119.150 Y103.366 E0.02188
G1 X118.508 Y104.006 E0.02843
G1 X117.820 Y104.598 E0.02845
G1 X117.267 Y105.023 E0.02189
G1 X116.433 Y105.589 E0.03160
G1 X116.224 Y104.536 E0.03367
G1 X116.007 Y103.689 E0.02740
G1 X115.737 Y102.857 E0.02742
G1 X115.421 Y102.041 E0.02743
G1 X115.057 Y101.248 E0.02737
G1 X114.581 Y100.367 E0.03138
G1 X114.119 Y99.626 E0.02740
G1 X113.687 Y99.013 E0.02349
G1 X113.066 Y98.230 E0.03136
G1 X112.480 Y97.582 E0.02740
G1 X111.856 Y96.970 E0.02740
G1 X111.049 Y96.263 E0.03362
G1 X111.955 Y95.822 E0.03159
G1 X112.601 Y95.556 E0.02190
G1 X113.456 Y95.258 E0.02841
G1 X114.232 Y95.043 E0.02522
G1 X115.119 Y94.863 E0.02840
G1 X115.894 Y94.749 E0.02455
G1 X116.527 Y95.257 E0.02546
G1 X117.062 Y95.750 E0.02279
G1 X117.561 Y96.279 E0.02280
G1 X118.023 Y96.839 E0.02278
G1 X118.388 Y97.344 E0.01952
G1 X118.775 Y97.958 E0.02277
G1 X119.121 Y98.597 E0.02279
G1 X119.460 Y99.357 E0.02608
G1 X119.676 Y99.940 E0.01950
G1 X119.883 Y100.638 E0.02282
G1 X120.042 Y101.348 E0.02280
G1 X120.157 Y102.090 E0.02355
M204 S1000
G1 X120.412 Y102.465 F10800.000
G1 F8640
G1 X119.615 Y102.845 E-0.21473
G1 X119.150 Y103.366 E-0.16114
G1 X118.508 Y104.006 E-0.20936
G1 X117.934 Y104.500 E-0.17477
G1 E-0.04000 F2100.00000
G1 Z0.800 F10800.000
G1 X109.586 Y96.234
G1 Z0.200
G1 E0.80000 F2100.00000
M204 S500
G1 F1200
G1 X110.753 Y97.156 E0.04664
G1 X111.403 Y97.736 E0.02730
G1 X112.015 Y98.356 E0.02733
G1 X112.589 Y99.015 E0.02739
G1 X113.189 Y99.803 E0.03107
G1 X113.669 Y100.534 E0.02741
G1 X114.102 Y101.292 E0.02736
G1 X114.487 Y102.075 E0.02735
G1 X114.821 Y102.880 E0.02734
G1 X115.105 Y103.704 E0.02734
G1 X115.335 Y104.546 E0.02737
G1 X115.511 Y105.399 E0.02731
G1 X115.727 Y106.869 E0.04657
G1 X114.345 Y107.419 E0.04665
G1 X113.516 Y107.692 E0.02735
G1 X112.558 Y107.939 E0.03104
G1 X111.816 Y108.080 E0.02368
G1 X110.954 Y108.193 E0.02724
G1 X110.084 Y108.252 E0.02733
G1 X109.209 Y108.256 E0.02745
G1 X108.220 Y108.193 E0.03107
G1 X107.356 Y108.080 E0.02731
G1 X106.614 Y107.939 E0.02368
G1 X105.656 Y107.692 E0.03104
G1 X104.827 Y107.419 E0.02735
G1 X103.445 Y106.869 E0.04665
G1 X103.661 Y105.399 E0.04657
G1 X103.838 Y104.544 E0.02738
G1 X104.103 Y103.590 E0.03104
G1 X104.352 Y102.878 E0.02366
G1 X104.686 Y102.073 E0.02734
G1 X105.127 Y101.184 E0.03109
G1 X105.567 Y100.431 E0.02736
G1 X105.984 Y99.802 E0.02367
G1 X106.583 Y99.015 E0.03100
G1 X107.156 Y98.358 E0.02734
G1 X107.683 Y97.819 E0.02365
G1 X108.417 Y97.157 E0.03098
G1 X109.539 Y96.271 E0.04483
M204 S1000
G1 X109.586 Y96.714 F10800.000
M204 S500
G1 F1200
G1 X110.510 Y97.445 E0.03694
G1 X111.143 Y98.009 E0.02658
G1 X111.738 Y98.613 E0.02659
G1 X112.296 Y99.253 E0.02663
G1 X112.881 Y100.021 E0.03027
G1 X113.348 Y100.731 E0.02664
G1 X113.769 Y101.468 E0.02662
G1 X114.143 Y102.230 E0.02660
G1 X114.468 Y103.014 E0.02660
G1 X114.744 Y103.816 E0.02659
G1 X114.968 Y104.634 E0.02661
G1 X115.140 Y105.465 E0.02659
G1 X115.311 Y106.629 E0.03688
G1 X114.216 Y107.064 E0.03695
G1 X113.410 Y107.330 E0.02660
G1 X112.475 Y107.571 E0.03027
G1 X111.756 Y107.707 E0.02296
G1 X110.917 Y107.817 E0.02653
G1 X110.071 Y107.875 E0.02659
G1 X109.220 Y107.879 E0.02667
G1 X108.256 Y107.818 E0.03027
G1 X107.416 Y107.707 E0.02657
G1 X106.697 Y107.571 E0.02296
G1 X105.762 Y107.330 E0.03027
G1 X104.956 Y107.064 E0.02660
G1 X103.861 Y106.629 E0.03695
G1 X104.032 Y105.465 E0.03688
G1 X104.204 Y104.633 E0.02664
G1 X104.463 Y103.703 E0.03026
G1 X104.705 Y103.013 E0.02294
G1 X105.030 Y102.229 E0.02661
G1 X105.459 Y101.363 E0.03029
G1 X105.887 Y100.630 E0.02662
G1 X106.292 Y100.020 E0.02295
G1 X106.875 Y99.253 E0.03022
G1 X107.433 Y98.614 E0.02660
G1 X107.945 Y98.091 E0.02293
G1 X108.660 Y97.445 E0.03022
G1 X109.539 Y96.751 E0.03510
M204 S1000
G1 X109.586 Y97.195 F10800.000
M204 S500
G1 F1200
G1 X110.268 Y97.733 E0.02724
G1 X110.883 Y98.282 E0.02585
G1 X111.462 Y98.869 E0.02585
G1 X112.004 Y99.491 E0.02587
G1 X112.573 Y100.239 E0.02947
G1 X113.026 Y100.929 E0.02586
G1 X113.436 Y101.645 E0.02587
G1 X113.799 Y102.385 E0.02586
G1 X114.115 Y103.148 E0.02587
G1 X114.384 Y103.927 E0.02585
G1 X114.601 Y104.722 E0.02585
G1 X114.768 Y105.531 E0.02588
G1 X114.894 Y106.389 E0.02719
G1 X114.087 Y106.710 E0.02724
G1 X113.304 Y106.968 E0.02585
G1 X112.393 Y107.203 E0.02950
G1 X111.696 Y107.335 E0.02224
G1 X110.879 Y107.442 E0.02582
G1 X110.057 Y107.498 E0.02584
G1 X109.231 Y107.501 E0.02590
G1 X108.293 Y107.442 E0.02948
G1 X107.476 Y107.335 E0.02584
G1 X106.779 Y107.203 E0.02224
G1 X105.868 Y106.968 E0.02950
G1 X105.085 Y106.710 E0.02585
G1 X104.278 Y106.389 E0.02724
G1 X104.404 Y105.531 E0.02719
G1 X104.571 Y104.722 E0.02589
G1 X104.823 Y103.816 E0.02947
G1 X105.057 Y103.147 E0.02222
G1 X105.373 Y102.385 E0.02587
G1 X105.791 Y101.542 E0.02950
G1 X106.207 Y100.830 E0.02587
G1 X106.599 Y100.239 E0.02223
G1 X107.168 Y99.491 E0.02945
G1 X107.710 Y98.870 E0.02586
G1 X108.206 Y98.363 E0.02222
G1 X108.904 Y97.734 E0.02947
G1 X109.539 Y97.232 E0.02538
M204 S1000
G1 X109.854 Y96.898 F10800.000
G1 F8640
G1 X110.268 Y97.733 E-0.20427
G1 X110.883 Y98.282 E-0.19036
G1 X111.462 Y98.869 E-0.19038
G1 X111.960 Y99.441 E-0.17500
G1 E-0.04000 F2100.00000
G1 Z0.800 F10800.000
G1 X109.698 Y96.083
G1 Z0.200
G1 E0.80000 F2100.00000
M204 S500
G1 F1200
G1 X111.343 Y97.523 E0.06856
G1 X111.936 Y98.105 E0.02603
G1 X112.491 Y98.717 E0.02592
G1 X113.083 Y99.465 E0.02990
G1 X113.490 Y100.043 E0.02216
G1 X113.929 Y100.746 E0.02600
G1 X114.381 Y101.585 E0.02987
G1 X114.726 Y102.335 E0.02589
G1 X115.026 Y103.110 E0.02605
G1 X115.282 Y103.899 E0.02602
G1 X115.488 Y104.703 E0.02601
G1 X115.914 Y106.852 E0.06870
G1 X117.708 Y105.635 E0.06798
G1 X118.296 Y105.183 E0.02323
G1 X119.021 Y104.560 E0.02998
G1 X119.698 Y103.884 E0.03000
G1 X120.169 Y103.357 E0.02216
G1 X120.144 Y104.021 E0.02084
