; generated by PrusaSlicer 2.1.0+win64 on 2020-04-11 at 16:24:53 UTC

; 

; external perimeters extrusion width = 0.45mm
; perimeters extrusion width = 0.45mm
; infill extrusion width = 0.45mm
; solid infill extrusion width = 0.45mm
; top infill extrusion width = 0.40mm
; first layer extrusion width = 0.42mm

M73 P0 R34
M73 Q0 S34
M201 X1000 Y1000 Z1000 E5000 ; sets maximum accelerations, mm/sec^2
M203 X200 Y200 Z12 E120 ; sets maximum feedrates, mm/sec
M204 P1250 R1250 T1250 ; sets acceleration (P, T) and retract acceleration (R), mm/sec^2
M205 X8.00 Y8.00 Z0.40 E1.50 ; sets the jerk limits, mm/sec
M205 S0 T0 ; sets the minimum extruding and travel feed rate, mm/sec
M107
M862.3 P "MK3SMMU2S" ; printer model check
M862.1 P0.4 ; nozzle diameter check
M115 U3.8.1 ; tell printer latest fw version
G90 ; use absolute coordinates
M83 ; extruder relative mode
M104 S215 ; set extruder temp
M140 S60 ; set bed temp
Tx
M190 S60 ; wait for bed temp
M109 S215 ; wait for extruder temp
G28 W ; home all without mesh bed level
G80 ; mesh bed leveling

G21 ; set units to millimeters

;go outside print area
G1 Y-3.0 F1000.0
G1 Z0.4 F1000.0
; select extruder
Tc
; purge line
G1 X55.0 F2000.0
G1 Z0.3 F1000.0
G92 E0.0
G1 X240.0 E25.0 F2200.0
M73 Q0 S34
M73 P0 R34
G1 Y-2.0 F1000.0
G1 X55.0 E25 F1400.0
G1 Z0.20 F1000.0
G1 X5.0 E4.0 F1000.0

M221 S95
G92 E0.0
G21 ; set units to millimeters
G90 ; use absolute coordinates
M83 ; use relative distances for extrusion
M900 K30 ; Filament gcode
;BEFORE_LAYER_CHANGE
G92 E0.0
;0.2


G1 E-0.80000 F2100.00000
G1 Z0.600 F10800.000
;AFTER_LAYER_CHANGE
;0.2
G1 X93.426 Y73.479
G1 Z0.200
G1 E0.80000 F2100.00000
M204 S1000
G1 F1200
G1 X94.134 Y72.990 E0.02698
G1 X94.976 Y72.812 E0.02698
G1 X155.004 Y72.811 E1.88213
G1 X155.830 Y72.975 E0.02642
G1 X156.531 Y73.436 E0.02631
G1 X157.007 Y74.127 E0.02631
G1 X157.188 Y74.947 E0.02631
G1 X157.188 Y135.022 E1.88362
G1 X157.025 Y135.830 E0.02586
G1 X156.574 Y136.521 E0.02586
G1 X155.856 Y137.014 E0.02732
G1 X155.002 Y137.189 E0.02732
G1 X94.978 Y137.188 E1.88201
G1 X94.170 Y137.025 E0.02586
G1 X93.479 Y136.574 E0.02586
G1 X92.986 Y135.856 E0.02732
G1 X92.811 Y135.002 E0.02732
G1 X92.812 Y74.978 E1.88201
G1 X92.975 Y74.170 E0.02586
G1 X93.393 Y73.530 E0.02398
G1 F8640
G1 X94.134 Y72.990 E-0.21160
G1 X94.976 Y72.812 E-0.19870
G1 X96.490 Y72.812 E-0.34970
G1 E-0.04000 F2100.00000
G1 Z0.800 F10800.000
G1 X95.587 Y75.587
G1 Z0.200
G1 E0.80000 F2100.00000
G1 F1200
G1 X154.413 Y75.587 E1.84444
G1 X154.413 Y134.413 E1.84444
G1 X95.587 Y134.413 E1.84444
G1 X95.587 Y75.647 E1.84256
G1 X95.210 Y75.210 F10800.000
G1 F1200
G1 X154.790 Y75.210 E1.86809
G1 X154.790 Y134.790 E1.86809
G1 X95.210 Y134.790 E1.86809
G1 X95.210 Y75.270 E1.86621
G1 X95.596 Y75.314 F10800.000
G1 F8640
G1 X98.501 Y75.267 E-0.76000
G1 E-0.04000 F2100.00000
G1 Z0.800 F10800.000
G1 X95.700 Y133.534
G1 Z0.200
G1 E0.80000 F2100.00000
G1 F1200
G1 X96.296 Y134.130 E0.02653
G1 X96.832 Y134.130 E0.01686
G1 X95.870 Y133.168 E0.04282
G1 X95.870 Y132.633 E0.01686
G1 X97.367 Y134.130 E0.06667
G1 X97.903 Y134.130 E0.01686
G1 X95.870 Y132.097 E0.09051
G1 X95.870 Y131.562 E0.01686
G1 X98.438 Y134.130 E0.11435
G1 X98.974 Y134.130 E0.01686
G1 X95.870 Y131.026 E0.13820
G1 X95.870 Y130.491 E0.01686
G1 X99.509 Y134.130 E0.16204
G1 X100.045 Y134.130 E0.01686
G1 X95.870 Y129.955 E0.18589
G1 X95.870 Y129.420 E0.01686
G1 X100.580 Y134.130 E0.20973
G1 X101.116 Y134.130 E0.01686
G1 X95.870 Y128.884 E0.23358
G1 X95.870 Y128.349 E0.01686
G1 X101.651 Y134.130 E0.25742
G1 X102.187 Y134.130 E0.01686
G1 X95.870 Y127.813 E0.28126
G1 X95.870 Y127.278 E0.01686
G1 X102.722 Y134.130 E0.30511
G1 X103.258 Y134.130 E0.01686
G1 X95.870 Y126.742 E0.32895
G1 X95.870 Y126.207 E0.01686
G1 X103.793 Y134.130 E0.35280
G1 X104.329 Y134.130 E0.01686
G1 X95.870 Y125.671 E0.37664
G1 X95.870 Y125.136 E0.01686
G1 X104.864 Y134.130 E0.40049
G1 X105.400 Y134.130 E0.01686
G1 X95.870 Y124.600 E0.42433
G1 X95.870 Y124.065 E0.01686
G1 X105.935 Y134.130 E0.44817
G1 X106.471 Y134.130 E0.01686
G1 X95.870 Y123.529 E0.47202
G1 X95.870 Y122.994 E0.01686
G1 X107.006 Y134.130 E0.49586
G1 X107.542 Y134.130 E0.01686
G1 X95.870 Y122.458 E0.51971
M73 Q3 S33
G1 X95.870 Y121.923 E0.01686
G1 X108.077 Y134.130 E0.54355
M73 P3 R33
G1 X108.613 Y134.130 E0.01686
G1 X95.870 Y121.387 E0.56740
G1 X95.870 Y120.852 E0.01686
G1 X109.148 Y134.130 E0.59124
G1 X109.684 Y134.130 E0.01686
G1 X95.870 Y120.316 E0.61508
G1 X95.870 Y119.781 E0.01686
G1 X110.219 Y134.130 E0.63893
G1 X110.755 Y134.130 E0.01686
G1 X95.870 Y119.245 E0.66277
G1 X95.870 Y118.710 E0.01686
G1 X111.290 Y134.130 E0.68662
G1 X111.826 Y134.130 E0.01686
G1 X95.870 Y118.174 E0.71046
G1 X95.870 Y117.639 E0.01686
G1 X112.361 Y134.130 E0.73430
G1 X112.897 Y134.130 E0.01686
G1 X95.870 Y117.103 E0.75815
G1 X95.870 Y116.568 E0.01686
G1 X113.432 Y134.130 E0.78199
G1 X113.968 Y134.130 E0.01686
G1 X95.870 Y116.032 E0.80584
G1 X95.870 Y115.497 E0.01686
G1 X114.503 Y134.130 E0.82968
G1 X115.039 Y134.130 E0.01686
G1 X95.870 Y114.961 E0.85353
G1 X95.870 Y114.426 E0.01686
G1 X115.574 Y134.130 E0.87737
G1 X116.110 Y134.130 E0.01686
G1 X95.870 Y113.890 E0.90121
G1 X95.870 Y113.355 E0.01686
G1 X116.645 Y134.130 E0.92506
G1 X117.181 Y134.130 E0.01686
G1 X95.870 Y112.819 E0.94890
G1 X95.870 Y112.284 E0.01686
G1 X117.716 Y134.130 E0.97275
G1 X118.252 Y134.130 E0.01686
G1 X95.870 Y111.748 E0.99659
G1 X95.870 Y111.213 E0.01686
G1 X118.787 Y134.130 E1.02044
G1 X119.323 Y134.130 E0.01686
G1 X95.870 Y110.677 E1.04428
G1 X95.870 Y110.142 E0.01686
G1 X119.858 Y134.130 E1.06812
G1 X120.394 Y134.130 E0.01686
G1 X95.870 Y109.606 E1.09197
G1 X95.870 Y109.071 E0.01686
G1 X120.929 Y134.130 E1.11581
G1 X121.465 Y134.130 E0.01686
G1 X95.870 Y108.535 E1.13966
G1 X95.870 Y108.000 E0.01686
G1 X122.000 Y134.130 E1.16350
G1 X122.536 Y134.130 E0.01686
G1 X95.870 Y107.464 E1.18735
G1 X95.870 Y106.929 E0.01686
G1 X123.071 Y134.130 E1.21119
G1 X123.607 Y134.130 E0.01686
G1 X95.870 Y106.393 E1.23503
G1 X95.870 Y105.858 E0.01686
G1 X124.142 Y134.130 E1.25888
G1 X124.678 Y134.130 E0.01686
G1 X95.870 Y105.322 E1.28272
G1 X95.870 Y104.787 E0.01686
G1 X125.213 Y134.130 E1.30657
G1 X125.749 Y134.130 E0.01686
G1 X95.870 Y104.251 E1.33041
G1 X95.870 Y103.716 E0.01686
G1 X126.284 Y134.130 E1.35426
G1 X126.820 Y134.130 E0.01686
G1 X95.870 Y103.180 E1.37810
G1 X95.870 Y102.645 E0.01686
G1 X127.355 Y134.130 E1.40194
G1 X127.891 Y134.130 E0.01686
G1 X95.870 Y102.109 E1.42579
M73 Q6 S32
G1 X95.870 Y101.574 E0.01686
G1 X128.426 Y134.130 E1.44963
M73 P6 R32
G1 X128.962 Y134.130 E0.01686
G1 X95.870 Y101.038 E1.47348
G1 X95.870 Y100.503 E0.01686
G1 X129.497 Y134.130 E1.49732
G1 X130.033 Y134.130 E0.01686
G1 X95.870 Y99.967 E1.52117
G1 X95.870 Y99.432 E0.01686
G1 X130.568 Y134.130 E1.54501
G1 X131.104 Y134.130 E0.01686
G1 X95.870 Y98.896 E1.56885
G1 X95.870 Y98.361 E0.01686
G1 X131.639 Y134.130 E1.59270
G1 X132.175 Y134.130 E0.01686
G1 X95.870 Y97.825 E1.61654
G1 X95.870 Y97.290 E0.01686
G1 X132.710 Y134.130 E1.64039
G1 X133.246 Y134.130 E0.01686
G1 X95.870 Y96.754 E1.66423
G1 X95.870 Y96.219 E0.01686
G1 X133.781 Y134.130 E1.68807
G1 X134.317 Y134.130 E0.01686
G1 X95.870 Y95.683 E1.71192
G1 X95.870 Y95.148 E0.01686
G1 X134.852 Y134.130 E1.73576
G1 X135.388 Y134.130 E0.01686
G1 X95.870 Y94.612 E1.75961
G1 X95.870 Y94.077 E0.01686
G1 X135.923 Y134.130 E1.78345
G1 X136.459 Y134.130 E0.01686
G1 X95.870 Y93.541 E1.80730
G1 X95.870 Y93.006 E0.01686
G1 X136.994 Y134.130 E1.83114
G1 X137.530 Y134.130 E0.01686
G1 X95.870 Y92.470 E1.85498
G1 X95.870 Y91.935 E0.01686
G1 X138.065 Y134.130 E1.87883
G1 X138.601 Y134.130 E0.01686
G1 X95.870 Y91.399 E1.90267
G1 X95.870 Y90.864 E0.01686
G1 X139.136 Y134.130 E1.92652
G1 X139.672 Y134.130 E0.01686
G1 X95.870 Y90.328 E1.95036
M73 Q9 S31
G1 X95.870 Y89.793 E0.01686
G1 X140.207 Y134.130 E1.97421
M73 P9 R31
G1 X140.743 Y134.130 E0.01686
G1 X95.870 Y89.257 E1.99805
G1 X95.870 Y88.722 E0.01686
G1 X141.278 Y134.130 E2.02189
G1 X141.814 Y134.130 E0.01686
G1 X95.870 Y88.186 E2.04574
G1 X95.870 Y87.651 E0.01686
G1 X142.349 Y134.130 E2.06958
G1 X142.885 Y134.130 E0.01686
G1 X95.870 Y87.115 E2.09343
G1 X95.870 Y86.580 E0.01686
G1 X143.420 Y134.130 E2.11727
G1 X143.956 Y134.130 E0.01686
G1 X95.870 Y86.044 E2.14112
G1 X95.870 Y85.509 E0.01686
G1 X144.491 Y134.130 E2.16496
G1 X145.027 Y134.130 E0.01686
G1 X95.870 Y84.973 E2.18880
G1 X95.870 Y84.438 E0.01686
G1 X145.562 Y134.130 E2.21265
G1 X146.098 Y134.130 E0.01686
G1 X95.870 Y83.902 E2.23649
G1 X95.870 Y83.367 E0.01686
G1 X146.633 Y134.130 E2.26034
G1 X147.169 Y134.130 E0.01686
G1 X95.870 Y82.831 E2.28418
G1 X95.870 Y82.296 E0.01686
G1 X147.704 Y134.130 E2.30803
G1 X148.240 Y134.130 E0.01686
G1 X95.870 Y81.760 E2.33187
G1 X95.870 Y81.225 E0.01686
G1 X148.775 Y134.130 E2.35571
G1 X149.311 Y134.130 E0.01686
G1 X95.870 Y80.689 E2.37956
M73 Q12 S30
G1 X95.870 Y80.154 E0.01686
G1 X149.846 Y134.130 E2.40340
M73 P12 R30
G1 X150.382 Y134.130 E0.01686
G1 X95.870 Y79.618 E2.42725
G1 X95.870 Y79.083 E0.01686
G1 X150.917 Y134.130 E2.45109
G1 X151.453 Y134.130 E0.01686
G1 X95.870 Y78.547 E2.47494
G1 X95.870 Y78.012 E0.01686
G1 X151.988 Y134.130 E2.49878
G1 X152.524 Y134.130 E0.01686
G1 X95.870 Y77.476 E2.52262
G1 X95.870 Y76.941 E0.01686
G1 X153.059 Y134.130 E2.54647
G1 X153.595 Y134.130 E0.01686
G1 X95.870 Y76.405 E2.57031
G1 X95.870 Y75.870 E0.01686
G1 X154.130 Y134.130 E2.59416
G1 X154.130 Y133.595 E0.01686
G1 X96.405 Y75.870 E2.57031
G1 X96.941 Y75.870 E0.01686
G1 X154.130 Y133.059 E2.54647
G1 X154.130 Y132.524 E0.01686
G1 X97.476 Y75.870 E2.52263
G1 X98.012 Y75.870 E0.01686
G1 X154.130 Y131.988 E2.49878
G1 X154.130 Y131.453 E0.01686
G1 X98.547 Y75.870 E2.47494
G1 X99.083 Y75.870 E0.01686
G1 X154.130 Y130.917 E2.45109
M73 Q15 S29
G1 X154.130 Y130.382 E0.01686
G1 X99.618 Y75.870 E2.42725
M73 P15 R29
G1 X100.154 Y75.870 E0.01686
G1 X154.130 Y129.846 E2.40340
G1 X154.130 Y129.311 E0.01686
G1 X100.689 Y75.870 E2.37956
G1 X101.225 Y75.870 E0.01686
G1 X154.130 Y128.775 E2.35572
G1 X154.130 Y128.240 E0.01686
G1 X101.760 Y75.870 E2.33187
G1 X102.296 Y75.870 E0.01686
G1 X154.130 Y127.704 E2.30803
G1 X154.130 Y127.169 E0.01686
G1 X102.831 Y75.870 E2.28418
G1 X103.367 Y75.870 E0.01686
G1 X154.130 Y126.633 E2.26034
G1 X154.130 Y126.098 E0.01686
G1 X103.902 Y75.870 E2.23649
G1 X104.438 Y75.870 E0.01686
G1 X154.130 Y125.562 E2.21265
G1 X154.130 Y125.027 E0.01686
G1 X104.973 Y75.870 E2.18881
G1 X105.509 Y75.870 E0.01686
G1 X154.130 Y124.491 E2.16496
G1 X154.130 Y123.956 E0.01686
G1 X106.044 Y75.870 E2.14112
G1 X106.580 Y75.870 E0.01686
G1 X154.130 Y123.420 E2.11727
G1 X154.130 Y122.885 E0.01686
G1 X107.115 Y75.870 E2.09343
G1 X107.651 Y75.870 E0.01686
G1 X154.130 Y122.349 E2.06959
G1 X154.130 Y121.814 E0.01686
G1 X108.186 Y75.870 E2.04574
M73 Q18 S28
G1 X108.722 Y75.870 E0.01686
G1 X154.130 Y121.278 E2.02190
M73 P18 R28
G1 X154.130 Y120.743 E0.01686
G1 X109.257 Y75.870 E1.99805
G1 X109.793 Y75.870 E0.01686
G1 X154.130 Y120.207 E1.97421
G1 X154.130 Y119.672 E0.01686
G1 X110.328 Y75.870 E1.95036
G1 X110.864 Y75.870 E0.01686
G1 X154.130 Y119.136 E1.92652
G1 X154.130 Y118.601 E0.01686
G1 X111.399 Y75.870 E1.90268
G1 X111.935 Y75.870 E0.01686
G1 X154.130 Y118.065 E1.87883
G1 X154.130 Y117.530 E0.01686
G1 X112.470 Y75.870 E1.85499
G1 X113.006 Y75.870 E0.01686
G1 X154.130 Y116.994 E1.83114
G1 X154.130 Y116.459 E0.01686
G1 X113.541 Y75.870 E1.80730
G1 X114.077 Y75.870 E0.01686
G1 X154.130 Y115.923 E1.78345
G1 X154.130 Y115.388 E0.01686
G1 X114.612 Y75.870 E1.75961
G1 X115.148 Y75.870 E0.01686
G1 X154.130 Y114.852 E1.73577
G1 X154.130 Y114.317 E0.01686
G1 X115.683 Y75.870 E1.71192
G1 X116.219 Y75.870 E0.01686
G1 X154.130 Y113.781 E1.68808
G1 X154.130 Y113.246 E0.01686
G1 X116.754 Y75.870 E1.66423
G1 X117.290 Y75.870 E0.01686
G1 X154.130 Y112.710 E1.64039
G1 X154.130 Y112.175 E0.01686
G1 X117.825 Y75.870 E1.61654
G1 X118.361 Y75.870 E0.01686
G1 X154.130 Y111.639 E1.59270
G1 X154.130 Y111.104 E0.01686
G1 X118.896 Y75.870 E1.56886
G1 X119.432 Y75.870 E0.01686
G1 X154.130 Y110.568 E1.54501
M73 Q21 S27
G1 X154.130 Y110.033 E0.01686
G1 X119.967 Y75.870 E1.52117
G1 X120.503 Y75.870 E0.01686
G1 X154.130 Y109.497 E1.49732
M73 P21 R27
G1 X154.130 Y108.962 E0.01686
G1 X121.038 Y75.870 E1.47348
G1 X121.574 Y75.870 E0.01686
G1 X154.130 Y108.426 E1.44963
G1 X154.130 Y107.891 E0.01686
G1 X122.109 Y75.870 E1.42579
G1 X122.645 Y75.870 E0.01686
G1 X154.130 Y107.355 E1.40195
G1 X154.130 Y106.820 E0.01686
G1 X123.180 Y75.870 E1.37810
G1 X123.716 Y75.870 E0.01686
G1 X154.130 Y106.284 E1.35426
G1 X154.130 Y105.749 E0.01686
G1 X124.251 Y75.870 E1.33041
G1 X124.787 Y75.870 E0.01686
G1 X154.130 Y105.213 E1.30657
G1 X154.130 Y104.678 E0.01686
G1 X125.322 Y75.870 E1.28272
G1 X125.858 Y75.870 E0.01686
G1 X154.130 Y104.142 E1.25888
G1 X154.130 Y103.607 E0.01686
G1 X126.393 Y75.870 E1.23504
G1 X126.929 Y75.870 E0.01686
G1 X154.130 Y103.071 E1.21119
G1 X154.130 Y102.536 E0.01686
G1 X127.464 Y75.870 E1.18735
G1 X128.000 Y75.870 E0.01686
G1 X154.130 Y102.000 E1.16350
G1 X154.130 Y101.465 E0.01686
G1 X128.535 Y75.870 E1.13966
G1 X129.071 Y75.870 E0.01686
G1 X154.130 Y100.929 E1.11581
G1 X154.130 Y100.394 E0.01686
G1 X129.606 Y75.870 E1.09197
G1 X130.142 Y75.870 E0.01686
G1 X154.130 Y99.858 E1.06813
G1 X154.130 Y99.323 E0.01686
G1 X130.677 Y75.870 E1.04428
G1 X131.213 Y75.870 E0.01686
G1 X154.130 Y98.787 E1.02044
G1 X154.130 Y98.252 E0.01686
G1 X131.748 Y75.870 E0.99659
G1 X132.284 Y75.870 E0.01686
G1 X154.130 Y97.716 E0.97275
G1 X154.130 Y97.181 E0.01686
G1 X132.819 Y75.870 E0.94891
G1 X133.355 Y75.870 E0.01686
G1 X154.130 Y96.645 E0.92506
G1 X154.130 Y96.110 E0.01686
G1 X133.890 Y75.870 E0.90122
G1 X134.426 Y75.870 E0.01686
G1 X154.130 Y95.574 E0.87737
G1 X154.130 Y95.039 E0.01686
G1 X134.961 Y75.870 E0.85353
G1 X135.497 Y75.870 E0.01686
G1 X154.130 Y94.503 E0.82968
G1 X154.130 Y93.968 E0.01686
G1 X136.032 Y75.870 E0.80584
G1 X136.568 Y75.870 E0.01686
G1 X154.130 Y93.432 E0.78200
G1 X154.130 Y92.897 E0.01686
G1 X137.103 Y75.870 E0.75815
M73 Q24 S26
G1 X137.639 Y75.870 E0.01686
G1 X154.130 Y92.361 E0.73431
G1 X154.130 Y91.826 E0.01686
G1 X138.174 Y75.870 E0.71046
G1 X138.710 Y75.870 E0.01686
G1 X154.130 Y91.290 E0.68662
G1 X154.130 Y90.755 E0.01686
G1 X139.245 Y75.870 E0.66277
M73 P24 R26
G1 X139.781 Y75.870 E0.01686
G1 X154.130 Y90.219 E0.63893
G1 X154.130 Y89.684 E0.01686
G1 X140.316 Y75.870 E0.61509
G1 X140.852 Y75.870 E0.01686
G1 X154.130 Y89.148 E0.59124
G1 X154.130 Y88.613 E0.01686
G1 X141.387 Y75.870 E0.56740
G1 X141.923 Y75.870 E0.01686
G1 X154.130 Y88.077 E0.54355
G1 X154.130 Y87.542 E0.01686
G1 X142.458 Y75.870 E0.51971
G1 X142.994 Y75.870 E0.01686
G1 X154.130 Y87.006 E0.49586
G1 X154.130 Y86.471 E0.01686
G1 X143.529 Y75.870 E0.47202
G1 X144.065 Y75.870 E0.01686
G1 X154.130 Y85.935 E0.44818
G1 X154.130 Y85.400 E0.01686
G1 X144.600 Y75.870 E0.42433
G1 X145.136 Y75.870 E0.01686
G1 X154.130 Y84.864 E0.40049
G1 X154.130 Y84.329 E0.01686
G1 X145.671 Y75.870 E0.37664
G1 X146.207 Y75.870 E0.01686
G1 X154.130 Y83.793 E0.35280
G1 X154.130 Y83.258 E0.01686
G1 X146.742 Y75.870 E0.32895
G1 X147.278 Y75.870 E0.01686
G1 X154.130 Y82.722 E0.30511
G1 X154.130 Y82.187 E0.01686
G1 X147.813 Y75.870 E0.28127
G1 X148.349 Y75.870 E0.01686
G1 X154.130 Y81.651 E0.25742
G1 X154.130 Y81.116 E0.01686
G1 X148.884 Y75.870 E0.23358
G1 X149.420 Y75.870 E0.01686
G1 X154.130 Y80.580 E0.20973
G1 X154.130 Y80.045 E0.01686
G1 X149.955 Y75.870 E0.18589
G1 X150.491 Y75.870 E0.01686
G1 X154.130 Y79.509 E0.16204
G1 X154.130 Y78.974 E0.01686
G1 X151.026 Y75.870 E0.13820
G1 X151.562 Y75.870 E0.01686
G1 X154.130 Y78.438 E0.11436
G1 X154.130 Y77.903 E0.01686
G1 X152.097 Y75.870 E0.09051
G1 X152.633 Y75.870 E0.01686
G1 X154.130 Y77.367 E0.06667
G1 X154.130 Y76.832 E0.01686
G1 X153.168 Y75.870 E0.04282
G1 X153.704 Y75.870 E0.01686
G1 X154.300 Y76.466 E0.02654
M106 S255
;BEFORE_LAYER_CHANGE
G92 E0.0
;0.4


G1 F8640
G1 X153.704 Y75.870 E-0.19460
G1 X153.168 Y75.870 E-0.12365
G1 X154.130 Y76.832 E-0.31405
G1 X154.130 Y77.367 E-0.12365
G1 X154.118 Y77.355 E-0.00405
G1 E-0.04000 F2100.00000
