; generated by PrusaSlicer 2.1.0+win64 on 2020-05-06 at 16:57:53 UTC

; 

; external perimeters extrusion width = 0.45mm
; perimeters extrusion width = 0.45mm
; infill extrusion width = 0.45mm
; solid infill extrusion width = 0.45mm
; top infill extrusion width = 0.40mm
; first layer extrusion width = 0.42mm

M73 P0 R208
M73 Q0 S208
M201 X1000 Y1000 Z1000 E5000 ; sets maximum accelerations, mm/sec^2
M203 X200 Y200 Z12 E120 ; sets maximum feedrates, mm/sec
M204 P1250 R1250 T1250 ; sets acceleration (P, T) and retract acceleration (R), mm/sec^2
M205 X8.00 Y8.00 Z0.40 E1.50 ; sets the jerk limits, mm/sec
M205 S0 T0 ; sets the minimum extruding and travel feed rate, mm/sec
M107
M862.3 P "MK3SMMU2S" ; printer model check
M862.1 P0.4 ; nozzle diameter check
M115 U3.8.1 ; tell printer latest fw version
G90 ; use absolute coordinates
M83 ; extruder relative mode
M104 S215 ; set extruder temp
M140 S60 ; set bed temp
Tx
M190 S60 ; wait for bed temp
M109 S215 ; wait for extruder temp
G28 W ; home all without mesh bed level
G80 ; mesh bed leveling

G21 ; set units to millimeters

;go outside print area
G1 Y-3.0 F1000.0
G1 Z0.4 F1000.0
; select extruder
Tc
; purge line
G1 X55.0 F2000.0
G1 Z0.3 F1000.0
G92 E0.0
G1 X240.0 E25.0 F2200.0
M73 Q0 S208
M73 P0 R208
G1 Y-2.0 F1000.0
G1 X55.0 E25 F1400.0
G1 Z0.20 F1000.0
G1 X5.0 E4.0 F1000.0

M221 S100
G92 E0.0
G21 ; set units to millimeters
G90 ; use absolute coordinates
M83 ; use relative distances for extrusion
M900 K30 ; Filament gcode
;BEFORE_LAYER_CHANGE
G92 E0.0
;0.2


G1 E-0.80000 F2100.00000
G1 Z0.600 F10800.000
;AFTER_LAYER_CHANGE
;0.2
G1 X95.604 Y43.001
G1 Z0.200
G1 E0.80000 F2100.00000
M204 S500
G1 F1200
G1 X96.064 Y42.601 E0.01908
G1 X96.611 Y42.345 E0.01896
G1 X97.212 Y42.249 E0.01908
G1 X157.260 Y42.248 E1.88275
G1 X158.090 Y42.413 E0.02653
G1 X158.795 Y42.881 E0.02653
G1 X159.270 Y43.581 E0.02653
G1 X159.444 Y44.409 E0.02653
G1 X159.444 Y104.448 E1.88247
G1 X159.040 Y171.307 E2.09635
G1 X158.986 Y171.770 E0.01464
G1 X158.833 Y172.215 E0.01475
G1 X158.500 Y172.725 E0.01908
G1 X158.040 Y173.123 E0.01908
G1 X157.489 Y173.380 E0.01908
G1 X156.888 Y173.474 E0.01908
G1 X96.844 Y173.475 E1.88263
G1 X96.373 Y173.422 E0.01487
G1 X95.924 Y173.268 E0.01487
G1 X95.409 Y172.932 E0.01930
G1 X95.007 Y172.465 E0.01930
G1 X94.752 Y171.905 E0.01930
G1 X94.663 Y171.296 E0.01930
G1 X94.663 Y111.275 E1.88190
G1 X95.067 Y44.416 E2.09635
G1 X95.122 Y43.952 E0.01464
G1 X95.274 Y43.507 E0.01475
G1 X95.572 Y43.051 E0.01708
M204 S1000
G1 F8640
G1 X96.064 Y42.601 E-0.15385
G1 X96.611 Y42.345 E-0.13964
G1 X97.212 Y42.249 E-0.14048
G1 X98.624 Y42.249 E-0.32604
G1 E-0.04000 F2100.00000
G1 Z0.800 F10800.000
G1 X97.815 Y112.250
G1 Z0.200
G1 E0.80000 F2100.00000
M204 S500
G1 F1200
G1 X155.887 Y112.250 E1.82080
G1 X155.887 Y170.322 E1.82080
G1 X97.815 Y170.322 E1.82080
G1 X97.815 Y112.310 E1.81892
M204 S1000
G1 X97.438 Y111.873 F10800.000
M204 S500
G1 F1200
G1 X156.264 Y111.873 E1.84444
G1 X156.264 Y170.699 E1.84444
G1 X97.438 Y170.699 E1.84444
G1 X97.438 Y111.933 E1.84256
M204 S1000
G1 X97.061 Y111.496 F10800.000
M204 S500
G1 F1200
G1 X156.641 Y111.496 E1.86809
G1 X156.641 Y171.076 E1.86809
M73 Q0 S207
M73 P0 R207
G1 X97.061 Y171.076 E1.86809
G1 X97.061 Y111.556 E1.86621
M204 S1000
G1 X97.448 Y111.600 F10800.000
G1 F8640
G1 X100.353 Y111.553 E-0.76000
G1 E-0.04000 F2100.00000
G1 Z0.800 F10800.000
G1 X97.929 Y169.446
G1 Z0.200
G1 E0.80000 F2100.00000
M204 S500
G1 F1200
G1 X98.521 Y170.039 E0.02630
G1 X99.055 Y170.039 E0.01673
G1 X98.098 Y169.082 E0.04244
G1 X98.098 Y168.549 E0.01673
G1 X99.588 Y170.039 E0.06610
G1 X100.122 Y170.039 E0.01673
G1 X98.098 Y168.015 E0.08977
G1 X98.098 Y167.482 E0.01673
G1 X100.655 Y170.039 E0.11343
G1 X101.189 Y170.039 E0.01673
G1 X98.098 Y166.948 E0.13710
G1 X98.098 Y166.415 E0.01673
G1 X101.722 Y170.039 E0.16076
G1 X102.256 Y170.039 E0.01673
G1 X98.098 Y165.881 E0.18443
G1 X98.098 Y165.348 E0.01673
G1 X102.789 Y170.039 E0.20809
G1 X103.323 Y170.039 E0.01673
G1 X98.098 Y164.815 E0.23176
G1 X98.098 Y164.281 E0.01673
G1 X103.856 Y170.039 E0.25542
G1 X104.390 Y170.039 E0.01673
G1 X98.098 Y163.748 E0.27909
G1 X98.098 Y163.214 E0.01673
G1 X104.923 Y170.039 E0.30275
G1 X105.457 Y170.039 E0.01673
G1 X98.098 Y162.681 E0.32642
G1 X98.098 Y162.147 E0.01673
G1 X105.990 Y170.039 E0.35008
G1 X106.524 Y170.039 E0.01673
G1 X98.098 Y161.614 E0.37375
G1 X98.098 Y161.080 E0.01673
G1 X107.057 Y170.039 E0.39741
G1 X107.591 Y170.039 E0.01673
G1 X98.098 Y160.547 E0.42108
G1 X98.098 Y160.013 E0.01673
G1 X108.124 Y170.039 E0.44474
G1 X108.658 Y170.039 E0.01673
G1 X98.098 Y159.480 E0.46841
G1 X98.098 Y158.946 E0.01673
G1 X109.191 Y170.039 E0.49207
G1 X109.725 Y170.039 E0.01673
G1 X98.098 Y158.413 E0.51574
G1 X98.098 Y157.879 E0.01673
G1 X110.258 Y170.039 E0.53940
G1 X110.792 Y170.039 E0.01673
G1 X98.098 Y157.346 E0.56307
G1 X98.098 Y156.812 E0.01673
G1 X111.325 Y170.039 E0.58673
G1 X111.859 Y170.039 E0.01673
G1 X98.098 Y156.279 E0.61040
G1 X98.098 Y155.745 E0.01673
G1 X112.392 Y170.039 E0.63406
G1 X112.925 Y170.039 E0.01673
G1 X98.098 Y155.212 E0.65773
G1 X98.098 Y154.678 E0.01673
G1 X113.459 Y170.039 E0.68139
G1 X113.992 Y170.039 E0.01673
G1 X98.098 Y154.145 E0.70506
G1 X98.098 Y153.611 E0.01673
G1 X114.526 Y170.039 E0.72873
G1 X115.059 Y170.039 E0.01673
G1 X98.098 Y153.078 E0.75239
G1 X98.098 Y152.544 E0.01673
G1 X115.593 Y170.039 E0.77606
G1 X116.126 Y170.039 E0.01673
G1 X98.098 Y152.011 E0.79972
G1 X98.098 Y151.477 E0.01673
G1 X116.660 Y170.039 E0.82339
G1 X117.193 Y170.039 E0.01673
G1 X98.098 Y150.944 E0.84705
G1 X98.098 Y150.410 E0.01673
G1 X117.727 Y170.039 E0.87072
G1 X118.260 Y170.039 E0.01673
G1 X98.098 Y149.877 E0.89438
G1 X98.098 Y149.343 E0.01673
G1 X118.794 Y170.039 E0.91805
G1 X119.327 Y170.039 E0.01673
G1 X98.098 Y148.810 E0.94171
G1 X98.098 Y148.276 E0.01673
G1 X119.861 Y170.039 E0.96538
G1 X120.394 Y170.039 E0.01673
G1 X98.098 Y147.743 E0.98904
G1 X98.098 Y147.209 E0.01673
G1 X120.928 Y170.039 E1.01271
G1 X121.461 Y170.039 E0.01673
G1 X98.098 Y146.676 E1.03637
G1 X98.098 Y146.143 E0.01673
G1 X121.995 Y170.039 E1.06004
G1 X122.528 Y170.039 E0.01673
G1 X98.098 Y145.609 E1.08370
G1 X98.098 Y145.076 E0.01673
G1 X123.062 Y170.039 E1.10737
G1 X123.595 Y170.039 E0.01673
G1 X98.098 Y144.542 E1.13103
G1 X98.098 Y144.009 E0.01673
G1 X124.129 Y170.039 E1.15470
G1 X124.662 Y170.039 E0.01673
G1 X98.098 Y143.475 E1.17836
G1 X98.098 Y142.942 E0.01673
G1 X125.196 Y170.039 E1.20203
G1 X125.729 Y170.039 E0.01673
G1 X98.098 Y142.408 E1.22569
M73 Q1 S206
M73 P1 R206
G1 X98.098 Y141.875 E0.01673
G1 X126.263 Y170.039 E1.24936
G1 X126.796 Y170.039 E0.01673
G1 X98.098 Y141.341 E1.27302
G1 X98.098 Y140.808 E0.01673
G1 X127.330 Y170.039 E1.29669
G1 X127.863 Y170.039 E0.01673
G1 X98.098 Y140.274 E1.32035
G1 X98.098 Y139.741 E0.01673
G1 X128.397 Y170.039 E1.34402
G1 X128.930 Y170.039 E0.01673
G1 X98.098 Y139.207 E1.36768
G1 X98.098 Y138.674 E0.01673
G1 X129.464 Y170.039 E1.39135
G1 X129.997 Y170.039 E0.01673
G1 X98.098 Y138.140 E1.41501
G1 X98.098 Y137.607 E0.01673
G1 X130.531 Y170.039 E1.43868
G1 X131.064 Y170.039 E0.01673
G1 X98.098 Y137.073 E1.46234
G1 X98.098 Y136.540 E0.01673
G1 X131.597 Y170.039 E1.48601
G1 X132.131 Y170.039 E0.01673
G1 X98.098 Y136.006 E1.50967
G1 X98.098 Y135.473 E0.01673
G1 X132.664 Y170.039 E1.53334
G1 X133.198 Y170.039 E0.01673
G1 X98.098 Y134.939 E1.55700
G1 X98.098 Y134.406 E0.01673
G1 X133.731 Y170.039 E1.58067
G1 X134.265 Y170.039 E0.01673
G1 X98.098 Y133.872 E1.60433
G1 X98.098 Y133.339 E0.01673
G1 X134.798 Y170.039 E1.62800
G1 X135.332 Y170.039 E0.01673
G1 X98.098 Y132.805 E1.65167
G1 X98.098 Y132.272 E0.01673
G1 X135.865 Y170.039 E1.67533
G1 X136.399 Y170.039 E0.01673
G1 X98.098 Y131.738 E1.69900
G1 X98.098 Y131.205 E0.01673
G1 X136.932 Y170.039 E1.72266
G1 X137.466 Y170.039 E0.01673
G1 X98.098 Y130.671 E1.74633
G1 X98.098 Y130.138 E0.01673
G1 X137.999 Y170.039 E1.76999
G1 X138.533 Y170.039 E0.01673
G1 X98.098 Y129.604 E1.79366
G1 X98.098 Y129.071 E0.01673
G1 X139.066 Y170.039 E1.81732
M73 Q1 S205
M73 P1 R205
G1 X139.600 Y170.039 E0.01673
G1 X98.098 Y128.538 E1.84099
G1 X98.098 Y128.004 E0.01673
G1 X140.133 Y170.039 E1.86465
G1 X140.667 Y170.039 E0.01673
G1 X98.098 Y127.471 E1.88832
G1 X98.098 Y126.937 E0.01673
G1 X141.200 Y170.039 E1.91198
G1 X141.734 Y170.039 E0.01673
G1 X98.098 Y126.404 E1.93565
G1 X98.098 Y125.870 E0.01673
G1 X142.267 Y170.039 E1.95931
G1 X142.801 Y170.039 E0.01673
G1 X98.098 Y125.337 E1.98298
G1 X98.098 Y124.803 E0.01673
G1 X143.334 Y170.039 E2.00664
G1 X143.868 Y170.039 E0.01673
G1 X98.098 Y124.270 E2.03031
G1 X98.098 Y123.736 E0.01673
G1 X144.401 Y170.039 E2.05397
G1 X144.935 Y170.039 E0.01673
G1 X98.098 Y123.203 E2.07764
G1 X98.098 Y122.669 E0.01673
G1 X145.468 Y170.039 E2.10130
G1 X146.002 Y170.039 E0.01673
G1 X98.098 Y122.136 E2.12497
G1 X98.098 Y121.602 E0.01673
G1 X146.535 Y170.039 E2.14863
G1 X147.069 Y170.039 E0.01673
G1 X98.098 Y121.069 E2.17230
G1 X98.098 Y120.535 E0.01673
G1 X147.602 Y170.039 E2.19596
G1 X148.136 Y170.039 E0.01673
G1 X98.098 Y120.002 E2.21963
G1 X98.098 Y119.468 E0.01673
G1 X148.669 Y170.039 E2.24329
G1 X149.202 Y170.039 E0.01673
G1 X98.098 Y118.935 E2.26696
M73 Q2 S204
M73 P2 R204
G1 X98.098 Y118.401 E0.01673
G1 X149.736 Y170.039 E2.29062
G1 X150.269 Y170.039 E0.01673
G1 X98.098 Y117.868 E2.31429
G1 X98.098 Y117.334 E0.01673
G1 X150.803 Y170.039 E2.33795
G1 X151.336 Y170.039 E0.01673
G1 X98.098 Y116.801 E2.36162
G1 X98.098 Y116.267 E0.01673
G1 X151.870 Y170.039 E2.38528
G1 X152.403 Y170.039 E0.01673
G1 X98.098 Y115.734 E2.40895
G1 X98.098 Y115.200 E0.01673
G1 X152.937 Y170.039 E2.43261
G1 X153.470 Y170.039 E0.01673
G1 X98.098 Y114.667 E2.45628
G1 X98.098 Y114.133 E0.01673
G1 X154.004 Y170.039 E2.47994
G1 X154.537 Y170.039 E0.01673
G1 X98.098 Y113.600 E2.50361
G1 X98.098 Y113.066 E0.01673
G1 X155.071 Y170.039 E2.52727
G1 X155.604 Y170.039 E0.01673
G1 X98.098 Y112.533 E2.55094
G1 X98.632 Y112.533 E0.01673
G1 X155.604 Y169.506 E2.52728
G1 X155.604 Y168.972 E0.01673
G1 X99.165 Y112.533 E2.50361
G1 X99.699 Y112.533 E0.01673
G1 X155.604 Y168.439 E2.47995
G1 X155.604 Y167.905 E0.01673
G1 X100.232 Y112.533 E2.45628
M73 Q2 S203
M73 P2 R202
G1 X100.766 Y112.533 E0.01673
G1 X155.604 Y167.372 E2.43262
G1 X155.604 Y166.838 E0.01673
G1 X101.299 Y112.533 E2.40895
G1 X101.833 Y112.533 E0.01673
G1 X155.604 Y166.305 E2.38529
G1 X155.604 Y165.771 E0.01673
G1 X102.366 Y112.533 E2.36162
G1 X102.900 Y112.533 E0.01673
G1 X155.604 Y165.238 E2.33796
G1 X155.604 Y164.704 E0.01673
G1 X103.433 Y112.533 E2.31429
G1 X103.967 Y112.533 E0.01673
G1 X155.604 Y164.171 E2.29063
G1 X155.604 Y163.637 E0.01673
G1 X104.500 Y112.533 E2.26696
G1 X105.034 Y112.533 E0.01673
G1 X155.604 Y163.104 E2.24330
G1 X155.604 Y162.570 E0.01673
G1 X105.567 Y112.533 E2.21963
G1 X106.100 Y112.533 E0.01673
G1 X155.604 Y162.037 E2.19597
G1 X155.604 Y161.503 E0.01673
G1 X106.634 Y112.533 E2.17230
G1 X107.167 Y112.533 E0.01673
G1 X155.604 Y160.970 E2.14864
G1 X155.604 Y160.436 E0.01673
G1 X107.701 Y112.533 E2.12497
G1 X108.234 Y112.533 E0.01673
G1 X155.604 Y159.903 E2.10130
G1 X155.604 Y159.369 E0.01673
G1 X108.768 Y112.533 E2.07764
G1 X109.301 Y112.533 E0.01673
G1 X155.604 Y158.836 E2.05397
M73 Q3 S202
M73 P3 R201
G1 X155.604 Y158.302 E0.01673
G1 X109.835 Y112.533 E2.03031
G1 X110.368 Y112.533 E0.01673
G1 X155.604 Y157.769 E2.00664
G1 X155.604 Y157.235 E0.01673
G1 X110.902 Y112.533 E1.98298
G1 X111.435 Y112.533 E0.01673
G1 X155.604 Y156.702 E1.95931
G1 X155.604 Y156.168 E0.01673
G1 X111.969 Y112.533 E1.93565
G1 X112.502 Y112.533 E0.01673
G1 X155.604 Y155.635 E1.91198
G1 X155.604 Y155.101 E0.01673
G1 X113.036 Y112.533 E1.88832
G1 X113.569 Y112.533 E0.01673
G1 X155.604 Y154.568 E1.86465
G1 X155.604 Y154.035 E0.01673
G1 X114.103 Y112.533 E1.84099
G1 X114.636 Y112.533 E0.01673
G1 X155.604 Y153.501 E1.81732
G1 X155.604 Y152.968 E0.01673
G1 X115.170 Y112.533 E1.79366
G1 X115.703 Y112.533 E0.01673
G1 X155.604 Y152.434 E1.76999
G1 X155.604 Y151.901 E0.01673
G1 X116.237 Y112.533 E1.74633
G1 X116.770 Y112.533 E0.01673
G1 X155.604 Y151.367 E1.72266
G1 X155.604 Y150.834 E0.01673
G1 X117.304 Y112.533 E1.69900
G1 X117.837 Y112.533 E0.01673
G1 X155.604 Y150.300 E1.67533
G1 X155.604 Y149.767 E0.01673
G1 X118.371 Y112.533 E1.65167
G1 X118.904 Y112.533 E0.01673
G1 X155.604 Y149.233 E1.62800
G1 X155.604 Y148.700 E0.01673
G1 X119.438 Y112.533 E1.60434
G1 X119.971 Y112.533 E0.01673
G1 X155.604 Y148.166 E1.58067
G1 X155.604 Y147.633 E0.01673
G1 X120.505 Y112.533 E1.55701
M73 Q3 S201
M73 P3 R200
G1 X121.038 Y112.533 E0.01673
G1 X155.604 Y147.099 E1.53334
G1 X155.604 Y146.566 E0.01673
G1 X121.572 Y112.533 E1.50968
G1 X122.105 Y112.533 E0.01673
G1 X155.604 Y146.032 E1.48601
G1 X155.604 Y145.499 E0.01673
G1 X122.639 Y112.533 E1.46235
G1 X123.172 Y112.533 E0.01673
G1 X155.604 Y144.965 E1.43868
G1 X155.604 Y144.432 E0.01673
G1 X123.705 Y112.533 E1.41502
G1 X124.239 Y112.533 E0.01673
G1 X155.604 Y143.898 E1.39135
G1 X155.604 Y143.365 E0.01673
G1 X124.772 Y112.533 E1.36769
G1 X125.306 Y112.533 E0.01673
G1 X155.604 Y142.831 E1.34402
G1 X155.604 Y142.298 E0.01673
G1 X125.839 Y112.533 E1.32036
G1 X126.373 Y112.533 E0.01673
G1 X155.604 Y141.764 E1.29669
G1 X155.604 Y141.231 E0.01673
G1 X126.906 Y112.533 E1.27303
G1 X127.440 Y112.533 E0.01673
G1 X155.604 Y140.697 E1.24936
G1 X155.604 Y140.164 E0.01673
G1 X127.973 Y112.533 E1.22570
G1 X128.507 Y112.533 E0.01673
G1 X155.604 Y139.630 E1.20203
G1 X155.604 Y139.097 E0.01673
G1 X129.040 Y112.533 E1.17836
G1 X129.574 Y112.533 E0.01673
G1 X155.604 Y138.563 E1.15470
G1 X155.604 Y138.030 E0.01673
G1 X130.107 Y112.533 E1.13103
G1 X130.641 Y112.533 E0.01673
G1 X155.604 Y137.496 E1.10737
G1 X155.604 Y136.963 E0.01673
G1 X131.174 Y112.533 E1.08370
G1 X131.708 Y112.533 E0.01673
G1 X155.604 Y136.430 E1.06004
G1 X155.604 Y135.896 E0.01673
G1 X132.241 Y112.533 E1.03637
G1 X132.775 Y112.533 E0.01673
G1 X155.604 Y135.363 E1.01271
G1 X155.604 Y134.829 E0.01673
G1 X133.308 Y112.533 E0.98904
G1 X133.842 Y112.533 E0.01673
G1 X155.604 Y134.296 E0.96538
G1 X155.604 Y133.762 E0.01673
G1 X134.375 Y112.533 E0.94171
G1 X134.909 Y112.533 E0.01673
G1 X155.604 Y133.229 E0.91805
G1 X155.604 Y132.695 E0.01673
G1 X135.442 Y112.533 E0.89438
G1 X135.976 Y112.533 E0.01673
G1 X155.604 Y132.162 E0.87072
G1 X155.604 Y131.628 E0.01673
G1 X136.509 Y112.533 E0.84705
G1 X137.043 Y112.533 E0.01673
G1 X155.604 Y131.095 E0.82339
G1 X155.604 Y130.561 E0.01673
G1 X137.576 Y112.533 E0.79972
M73 Q4 S200
M73 P4 R199
G1 X138.110 Y112.533 E0.01673
G1 X155.604 Y130.028 E0.77606
G1 X155.604 Y129.494 E0.01673
G1 X138.643 Y112.533 E0.75239
G1 X139.177 Y112.533 E0.01673
G1 X155.604 Y128.961 E0.72873
G1 X155.604 Y128.427 E0.01673
G1 X139.710 Y112.533 E0.70506
G1 X140.244 Y112.533 E0.01673
G1 X155.604 Y127.894 E0.68140
G1 X155.604 Y127.360 E0.01673
G1 X140.777 Y112.533 E0.65773
G1 X141.310 Y112.533 E0.01673
G1 X155.604 Y126.827 E0.63407
G1 X155.604 Y126.293 E0.01673
G1 X141.844 Y112.533 E0.61040
G1 X142.377 Y112.533 E0.01673
G1 X155.604 Y125.760 E0.58674
G1 X155.604 Y125.226 E0.01673
G1 X142.911 Y112.533 E0.56307
G1 X143.444 Y112.533 E0.01673
G1 X155.604 Y124.693 E0.53941
G1 X155.604 Y124.159 E0.01673
G1 X143.978 Y112.533 E0.51574
G1 X144.511 Y112.533 E0.01673
G1 X155.604 Y123.626 E0.49208
G1 X155.604 Y123.092 E0.01673
G1 X145.045 Y112.533 E0.46841
G1 X145.578 Y112.533 E0.01673
G1 X155.604 Y122.559 E0.44475
G1 X155.604 Y122.025 E0.01673
G1 X146.112 Y112.533 E0.42108
G1 X146.645 Y112.533 E0.01673
G1 X155.604 Y121.492 E0.39742
G1 X155.604 Y120.958 E0.01673
G1 X147.179 Y112.533 E0.37375
G1 X147.712 Y112.533 E0.01673
G1 X155.604 Y120.425 E0.35009
G1 X155.604 Y119.891 E0.01673
G1 X148.246 Y112.533 E0.32642
G1 X148.779 Y112.533 E0.01673
G1 X155.604 Y119.358 E0.30276
G1 X155.604 Y118.824 E0.01673
G1 X149.313 Y112.533 E0.27909
G1 X149.846 Y112.533 E0.01673
G1 X155.604 Y118.291 E0.25543
G1 X155.604 Y117.758 E0.01673
G1 X150.380 Y112.533 E0.23176
G1 X150.913 Y112.533 E0.01673
G1 X155.604 Y117.224 E0.20809
G1 X155.604 Y116.691 E0.01673
G1 X151.447 Y112.533 E0.18443
G1 X151.980 Y112.533 E0.01673
